(G-CODE GENERATED BY FLATCAM v8.991 - www.flatcam.org - Version Date: 2019/12/27)

(Name: cnc)
(Type: G-code from Geometry)
(Units: MM)

(Created on Thursday, 14 September 2023 at 21:24)

(TOOL DIAMETER: 0.11 mm)
(Feedrate: 45.0 mm/min)
(Feedrate_Z: 25.0 mm/min)
(Feedrate rapids 1500.0 mm/min)

(Z_Cut: -0.0187 mm)
(Z_Move: 2.0 mm)
(Z Toolchange: 15.0 mm)
(X,Y Toolchange: 0.0000, 0.0000 mm)
(Z Start: None mm)
(Z End: 15.0 mm)
(Steps per circle: 64)
(Preprocessor Geometry: default)

(X range:    1.7697 ...   57.4379  mm)
(Y range:    3.1387 ...   46.8943  mm)

(Spindle Speed: None RPM)
G21
G90
G94




G01 F45.00
G00 Z2.0000

M03
G00 X8.2591 Y14.1504
G01 F25.00
G01 Z-0.0187
G01 F45.00
G01 X7.8857 Y14.5239
G01 X7.8857 Y24.5458
G01 X7.9128 Y24.5529
G01 X8.0301 Y24.5949
G01 X8.0351 Y24.5970
G01 X8.1478 Y24.6502
G01 X8.1525 Y24.6528
G01 X8.2594 Y24.7169
G01 X8.2639 Y24.7199
G01 X8.3640 Y24.7941
G01 X8.3682 Y24.7975
G01 X8.4606 Y24.8812
G01 X8.4644 Y24.8850
G01 X8.5481 Y24.9774
G01 X8.5515 Y24.9816
G01 X8.6257 Y25.0817
G01 X8.6287 Y25.0862
G01 X8.6928 Y25.1931
G01 X8.6954 Y25.1978
G01 X8.7486 Y25.3105
G01 X8.7507 Y25.3155
G01 X8.7927 Y25.4328
G01 X8.7943 Y25.4380
G01 X8.8245 Y25.5589
G01 X8.8256 Y25.5642
G01 X8.8439 Y25.6874
G01 X8.8444 Y25.6928
G01 X8.8505 Y25.8173
G01 X8.8505 Y25.8227
G01 X8.8444 Y25.9472
G01 X8.8439 Y25.9526
G01 X8.8256 Y26.0758
G01 X8.8245 Y26.0811
G01 X8.7943 Y26.2020
G01 X8.7927 Y26.2072
G01 X8.7507 Y26.3245
G01 X8.7486 Y26.3295
G01 X8.6954 Y26.4422
G01 X8.6928 Y26.4469
G01 X8.6287 Y26.5538
G01 X8.6257 Y26.5583
G01 X8.5515 Y26.6584
G01 X8.5481 Y26.6626
G01 X8.4644 Y26.7550
G01 X8.4606 Y26.7588
G01 X8.3682 Y26.8425
G01 X8.3640 Y26.8459
G01 X8.2639 Y26.9201
G01 X8.2594 Y26.9231
G01 X8.1525 Y26.9872
G01 X8.1478 Y26.9898
G01 X8.0351 Y27.0430
G01 X8.0301 Y27.0451
G01 X7.9128 Y27.0871
G01 X7.9076 Y27.0887
G01 X7.7867 Y27.1189
G01 X7.7814 Y27.1200
G01 X7.6582 Y27.1383
G01 X7.6528 Y27.1388
G01 X7.5283 Y27.1449
G01 X7.5229 Y27.1449
G01 X7.3984 Y27.1388
G01 X7.3930 Y27.1383
G01 X7.2698 Y27.1200
G01 X7.2645 Y27.1189
G01 X7.1436 Y27.0887
G01 X7.1384 Y27.0871
G01 X7.0211 Y27.0451
G01 X7.0161 Y27.0430
G01 X6.9034 Y26.9898
G01 X6.8987 Y26.9872
G01 X6.7918 Y26.9231
G01 X6.7873 Y26.9201
G01 X6.6872 Y26.8459
G01 X6.6830 Y26.8425
G01 X6.5906 Y26.7588
G01 X6.5868 Y26.7550
G01 X6.5031 Y26.6626
G01 X6.4997 Y26.6584
G01 X6.4255 Y26.5583
G01 X6.4225 Y26.5538
G01 X6.3584 Y26.4469
G01 X6.3558 Y26.4422
G01 X6.3026 Y26.3295
G01 X6.3005 Y26.3245
G01 X6.2585 Y26.2072
G01 X6.2569 Y26.2020
G01 X6.2267 Y26.0811
G01 X6.2256 Y26.0758
G01 X6.2073 Y25.9526
G01 X6.2068 Y25.9472
G01 X6.2007 Y25.8227
G01 X6.2007 Y25.8173
G01 X6.2068 Y25.6928
G01 X6.2073 Y25.6874
G01 X6.2256 Y25.5642
G01 X6.2267 Y25.5589
G01 X6.2569 Y25.4380
G01 X6.2585 Y25.4328
G01 X6.3005 Y25.3155
G01 X6.3026 Y25.3105
G01 X6.3558 Y25.1978
G01 X6.3584 Y25.1931
G01 X6.4225 Y25.0862
G01 X6.4255 Y25.0817
G01 X6.4997 Y24.9816
G01 X6.5031 Y24.9774
G01 X6.5868 Y24.8850
G01 X6.5906 Y24.8812
G01 X6.6830 Y24.7975
G01 X6.7591 Y24.7407
G01 X6.7591 Y14.2906
G01 X6.7622 Y14.2327
G01 X6.7706 Y14.1781
G01 X6.7827 Y14.1297
G01 X6.7842 Y14.1245
G01 X6.8031 Y14.0726
G01 X6.8270 Y14.0227
G01 X6.8556 Y13.9755
G01 X6.8853 Y13.9354
G01 X6.9241 Y13.8923
G01 X7.4626 Y13.3539
G01 X7.4430 Y13.3119
G01 X7.3926 Y13.1711
G01 X7.3911 Y13.1660
G01 X7.3547 Y13.0209
G01 X7.3537 Y13.0156
G01 X7.3317 Y12.8676
G01 X7.3312 Y12.8623
G01 X7.3239 Y12.7129
G01 X7.3239 Y12.7075
G01 X7.3312 Y12.5581
G01 X7.3317 Y12.5528
G01 X7.3537 Y12.4048
G01 X7.3547 Y12.3995
G01 X7.3911 Y12.2544
G01 X7.3926 Y12.2493
G01 X7.4430 Y12.1085
G01 X7.4451 Y12.1035
G01 X7.5090 Y11.9683
G01 X7.5116 Y11.9635
G01 X7.5885 Y11.8352
G01 X7.5915 Y11.8307
G01 X7.6806 Y11.7106
G01 X7.6840 Y11.7064
G01 X7.7844 Y11.5956
G01 X7.7882 Y11.5918
G01 X7.8990 Y11.4914
G01 X7.9032 Y11.4880
G01 X8.0233 Y11.3989
G01 X8.0278 Y11.3959
G01 X8.1561 Y11.3190
G01 X8.1609 Y11.3164
G01 X8.2961 Y11.2525
G01 X8.3011 Y11.2504
G01 X8.4419 Y11.2000
G01 X8.4470 Y11.1985
G01 X8.5921 Y11.1621
G01 X8.5974 Y11.1611
G01 X8.7454 Y11.1391
G01 X8.7507 Y11.1386
G01 X8.9001 Y11.1313
G01 X8.9055 Y11.1313
G01 X9.0549 Y11.1386
G01 X9.0602 Y11.1391
G01 X9.2082 Y11.1611
G01 X9.2135 Y11.1621
G01 X9.3586 Y11.1985
G01 X9.3637 Y11.2000
G01 X9.5045 Y11.2504
G01 X9.5095 Y11.2525
G01 X9.6447 Y11.3164
G01 X9.6495 Y11.3190
G01 X9.7778 Y11.3959
G01 X9.7823 Y11.3989
G01 X9.9024 Y11.4880
G01 X9.9066 Y11.4914
G01 X10.0174 Y11.5918
G01 X10.0212 Y11.5956
G01 X10.1216 Y11.7064
G01 X10.1250 Y11.7106
G01 X10.2141 Y11.8307
G01 X10.2171 Y11.8352
G01 X10.2940 Y11.9635
G01 X10.2966 Y11.9683
G01 X10.3605 Y12.1035
G01 X10.3626 Y12.1085
G01 X10.4130 Y12.2493
G01 X10.4145 Y12.2544
G01 X10.4509 Y12.3995
G01 X10.4519 Y12.4048
G01 X10.4739 Y12.5528
G01 X10.4744 Y12.5581
G01 X10.4817 Y12.7075
G01 X10.4817 Y12.7129
G01 X10.4744 Y12.8623
G01 X10.4739 Y12.8676
G01 X10.4519 Y13.0156
G01 X10.4509 Y13.0209
G01 X10.4145 Y13.1660
G01 X10.4130 Y13.1711
G01 X10.3626 Y13.3119
G01 X10.3605 Y13.3169
G01 X10.2966 Y13.4521
G01 X10.2940 Y13.4569
G01 X10.2171 Y13.5852
G01 X10.2141 Y13.5897
G01 X10.1250 Y13.7098
G01 X10.1216 Y13.7140
G01 X10.0212 Y13.8248
G01 X10.0174 Y13.8286
G01 X9.9066 Y13.9290
G01 X9.9024 Y13.9324
G01 X9.7823 Y14.0215
G01 X9.7778 Y14.0245
G01 X9.6495 Y14.1014
G01 X9.6447 Y14.1040
G01 X9.5095 Y14.1679
G01 X9.5045 Y14.1700
G01 X9.3637 Y14.2204
G01 X9.3586 Y14.2219
G01 X9.2135 Y14.2583
G01 X9.2082 Y14.2593
G01 X9.0602 Y14.2813
G01 X9.0549 Y14.2818
G01 X8.9055 Y14.2891
G01 X8.9001 Y14.2891
G01 X8.7507 Y14.2818
G01 X8.7454 Y14.2813
G01 X8.5974 Y14.2593
G01 X8.5921 Y14.2583
G01 X8.4470 Y14.2219
G01 X8.4419 Y14.2204
G01 X8.3011 Y14.1700
G01 X8.2591 Y14.1504
G00 Z2.0000
G00 X14.5461 Y14.1837
G01 F25.00
G01 Z-0.0187
G01 F45.00
G01 X14.5461 Y39.4752
G01 X14.5515 Y39.4816
G01 X14.6257 Y39.5817
G01 X14.6287 Y39.5862
G01 X14.6928 Y39.6931
G01 X14.6954 Y39.6978
G01 X14.7486 Y39.8105
G01 X14.7507 Y39.8155
G01 X14.7927 Y39.9328
G01 X14.7943 Y39.9380
G01 X14.8245 Y40.0589
G01 X14.8256 Y40.0642
G01 X14.8439 Y40.1874
G01 X14.8444 Y40.1928
G01 X14.8505 Y40.3173
G01 X14.8505 Y40.3227
G01 X14.8444 Y40.4472
G01 X14.8439 Y40.4526
G01 X14.8256 Y40.5758
G01 X14.8245 Y40.5811
G01 X14.7943 Y40.7020
G01 X14.7927 Y40.7072
G01 X14.7507 Y40.8245
G01 X14.7486 Y40.8295
G01 X14.6954 Y40.9422
G01 X14.6928 Y40.9469
G01 X14.6287 Y41.0538
G01 X14.6257 Y41.0583
G01 X14.5515 Y41.1584
G01 X14.5481 Y41.1626
G01 X14.4644 Y41.2550
G01 X14.4606 Y41.2588
G01 X14.3682 Y41.3425
G01 X14.3640 Y41.3459
G01 X14.2639 Y41.4201
G01 X14.2594 Y41.4231
G01 X14.1525 Y41.4872
G01 X14.1478 Y41.4898
G01 X14.0351 Y41.5430
G01 X14.0301 Y41.5451
G01 X13.9128 Y41.5871
G01 X13.9076 Y41.5887
G01 X13.7867 Y41.6189
G01 X13.7814 Y41.6200
G01 X13.6582 Y41.6383
G01 X13.6528 Y41.6388
G01 X13.5283 Y41.6449
G01 X13.5229 Y41.6449
G01 X13.3984 Y41.6388
G01 X13.3930 Y41.6383
G01 X13.2698 Y41.6200
G01 X13.2645 Y41.6189
G01 X13.1436 Y41.5887
G01 X13.1384 Y41.5871
G01 X13.0211 Y41.5451
G01 X13.0161 Y41.5430
G01 X12.9034 Y41.4898
G01 X12.8987 Y41.4872
G01 X12.7918 Y41.4231
G01 X12.7873 Y41.4201
G01 X12.6872 Y41.3459
G01 X12.6830 Y41.3425
G01 X12.5906 Y41.2588
G01 X12.5868 Y41.2550
G01 X12.5031 Y41.1626
G01 X12.4997 Y41.1584
G01 X12.4255 Y41.0583
G01 X12.4225 Y41.0538
G01 X12.3584 Y40.9469
G01 X12.3558 Y40.9422
G01 X12.3026 Y40.8295
G01 X12.3005 Y40.8245
G01 X12.2585 Y40.7072
G01 X12.2569 Y40.7020
G01 X12.2267 Y40.5811
G01 X12.2256 Y40.5758
G01 X12.2073 Y40.4526
G01 X12.2068 Y40.4472
G01 X12.2007 Y40.3227
G01 X12.2007 Y40.3173
G01 X12.2068 Y40.1928
G01 X12.2073 Y40.1874
G01 X12.2256 Y40.0642
G01 X12.2267 Y40.0589
G01 X12.2569 Y39.9380
G01 X12.2585 Y39.9328
G01 X12.3005 Y39.8155
G01 X12.3026 Y39.8105
G01 X12.3558 Y39.6978
G01 X12.3584 Y39.6931
G01 X12.4225 Y39.5862
G01 X12.4255 Y39.5817
G01 X12.4997 Y39.4816
G01 X12.5031 Y39.4774
G01 X12.5868 Y39.3850
G01 X12.5906 Y39.3812
G01 X12.6830 Y39.2975
G01 X12.6872 Y39.2941
G01 X12.7873 Y39.2199
G01 X12.7918 Y39.2169
G01 X12.8987 Y39.1528
G01 X12.9034 Y39.1502
G01 X13.0161 Y39.0970
G01 X13.0211 Y39.0949
G01 X13.1384 Y39.0529
G01 X13.1436 Y39.0513
G01 X13.2645 Y39.0211
G01 X13.2698 Y39.0200
G01 X13.3930 Y39.0017
G01 X13.4195 Y39.0001
G01 X13.4195 Y14.1837
G01 X13.3761 Y14.1679
G01 X13.2409 Y14.1040
G01 X13.2361 Y14.1014
G01 X13.1078 Y14.0245
G01 X13.1033 Y14.0215
G01 X12.9832 Y13.9324
G01 X12.9790 Y13.9290
G01 X12.8682 Y13.8286
G01 X12.8644 Y13.8248
G01 X12.7640 Y13.7140
G01 X12.7606 Y13.7098
G01 X12.6715 Y13.5897
G01 X12.6685 Y13.5852
G01 X12.5916 Y13.4569
G01 X12.5890 Y13.4521
G01 X12.5251 Y13.3169
G01 X12.5230 Y13.3119
G01 X12.4726 Y13.1711
G01 X12.4711 Y13.1660
G01 X12.4347 Y13.0209
G01 X12.4337 Y13.0156
G01 X12.4117 Y12.8676
G01 X12.4112 Y12.8623
G01 X12.4039 Y12.7129
G01 X12.4039 Y12.7075
G01 X12.4112 Y12.5581
G01 X12.4117 Y12.5528
G01 X12.4337 Y12.4048
G01 X12.4347 Y12.3995
G01 X12.4711 Y12.2544
G01 X12.4726 Y12.2493
G01 X12.5230 Y12.1085
G01 X12.5251 Y12.1035
G01 X12.5890 Y11.9683
G01 X12.5916 Y11.9635
G01 X12.6685 Y11.8352
G01 X12.6715 Y11.8307
G01 X12.7606 Y11.7106
G01 X12.7640 Y11.7064
G01 X12.8644 Y11.5956
G01 X12.8682 Y11.5918
G01 X12.9790 Y11.4914
G01 X12.9832 Y11.4880
G01 X13.1033 Y11.3989
G01 X13.1078 Y11.3959
G01 X13.2361 Y11.3190
G01 X13.2409 Y11.3164
G01 X13.3761 Y11.2525
G01 X13.3811 Y11.2504
G01 X13.5219 Y11.2000
G01 X13.5270 Y11.1985
G01 X13.6721 Y11.1621
G01 X13.6774 Y11.1611
G01 X13.8254 Y11.1391
G01 X13.8307 Y11.1386
G01 X13.9801 Y11.1313
G01 X13.9855 Y11.1313
G01 X14.1349 Y11.1386
G01 X14.1402 Y11.1391
G01 X14.2882 Y11.1611
G01 X14.2935 Y11.1621
G01 X14.4386 Y11.1985
G01 X14.4437 Y11.2000
G01 X14.5845 Y11.2504
G01 X14.5895 Y11.2525
G01 X14.7247 Y11.3164
G01 X14.7295 Y11.3190
G01 X14.8578 Y11.3959
G01 X14.8623 Y11.3989
G01 X14.9824 Y11.4880
G01 X14.9866 Y11.4914
G01 X15.0974 Y11.5918
G01 X15.1012 Y11.5956
G01 X15.2016 Y11.7064
G01 X15.2050 Y11.7106
G01 X15.2941 Y11.8307
G01 X15.2971 Y11.8352
G01 X15.3740 Y11.9635
G01 X15.3766 Y11.9683
G01 X15.4405 Y12.1035
G01 X15.4426 Y12.1085
G01 X15.4930 Y12.2493
G01 X15.4945 Y12.2544
G01 X15.5309 Y12.3995
G01 X15.5319 Y12.4048
G01 X15.5539 Y12.5528
G01 X15.5544 Y12.5581
G01 X15.5617 Y12.7075
G01 X15.5617 Y12.7129
G01 X15.5544 Y12.8623
G01 X15.5539 Y12.8676
G01 X15.5319 Y13.0156
G01 X15.5309 Y13.0209
G01 X15.4945 Y13.1660
G01 X15.4930 Y13.1711
G01 X15.4426 Y13.3119
G01 X15.4405 Y13.3169
G01 X15.3766 Y13.4521
G01 X15.3740 Y13.4569
G01 X15.2971 Y13.5852
G01 X15.2941 Y13.5897
G01 X15.2050 Y13.7098
G01 X15.2016 Y13.7140
G01 X15.1012 Y13.8248
G01 X15.0974 Y13.8286
G01 X14.9866 Y13.9290
G01 X14.9824 Y13.9324
G01 X14.8623 Y14.0215
G01 X14.8578 Y14.0245
G01 X14.7295 Y14.1014
G01 X14.7247 Y14.1040
G01 X14.5895 Y14.1679
G01 X14.5461 Y14.1837
G00 Z2.0000
G00 X15.0509 Y14.4378
G01 F25.00
G01 Z-0.0187
G01 F45.00
G01 X15.0266 Y14.4651
G01 X15.0050 Y14.4946
G01 X14.9864 Y14.5261
G01 X14.9710 Y14.5593
G01 X14.9590 Y14.5938
G01 X14.9503 Y14.6293
G01 X14.9452 Y14.6656
G01 X14.9436 Y14.6994
G01 X14.9436 Y39.1472
G01 X14.9458 Y39.1864
G01 X14.9514 Y39.2226
G01 X14.9590 Y39.2528
G01 X14.9605 Y39.2580
G01 X14.9731 Y39.2923
G01 X14.9864 Y39.3205
G01 X15.0050 Y39.3520
G01 X15.0266 Y39.3815
G01 X15.0528 Y39.4107
G01 X15.2484 Y39.6064
G01 X15.2484 Y41.0336
G01 X14.2392 Y42.0428
G01 X12.8120 Y42.0428
G01 X11.8028 Y41.0336
G01 X11.8028 Y39.6064
G01 X12.9128 Y38.4963
G01 X12.9356 Y38.4713
G01 X12.9576 Y38.4421
G01 X12.9766 Y38.4108
G01 X12.9792 Y38.4061
G01 X12.9946 Y38.3729
G01 X13.0066 Y38.3384
G01 X13.0153 Y38.3029
G01 X13.0204 Y38.2667
G01 X13.0220 Y38.2328
G01 X13.0219 Y14.6967
G01 X13.0204 Y14.6656
G01 X13.0153 Y14.6293
G01 X13.0066 Y14.5938
G01 X12.9946 Y14.5593
G01 X12.9792 Y14.5261
G01 X12.9766 Y14.5214
G01 X12.9576 Y14.4901
G01 X12.9356 Y14.4609
G01 X12.9128 Y14.4359
G01 X12.0060 Y13.5290
G01 X12.0060 Y11.8914
G01 X13.1640 Y10.7334
G01 X14.8016 Y10.7334
G01 X15.9596 Y11.8914
G01 X15.9596 Y13.5290
G01 X15.0509 Y14.4378
G00 Z2.0000
G00 X19.8857 Y14.0558
G01 F25.00
G01 Z-0.0187
G01 F45.00
G01 X19.8857 Y24.5458
G01 X19.9128 Y24.5529
G01 X20.0301 Y24.5949
G01 X20.0351 Y24.5970
G01 X20.1478 Y24.6502
G01 X20.1525 Y24.6528
G01 X20.2594 Y24.7169
G01 X20.2639 Y24.7199
G01 X20.3640 Y24.7941
G01 X20.3682 Y24.7975
G01 X20.4606 Y24.8812
G01 X20.4644 Y24.8850
G01 X20.5481 Y24.9774
G01 X20.5515 Y24.9816
G01 X20.6257 Y25.0817
G01 X20.6287 Y25.0862
G01 X20.6928 Y25.1931
G01 X20.6954 Y25.1978
G01 X20.7486 Y25.3105
G01 X20.7507 Y25.3155
G01 X20.7927 Y25.4328
G01 X20.7943 Y25.4380
G01 X20.8245 Y25.5589
G01 X20.8256 Y25.5642
G01 X20.8439 Y25.6874
G01 X20.8444 Y25.6928
G01 X20.8505 Y25.8173
G01 X20.8505 Y25.8227
G01 X20.8444 Y25.9472
G01 X20.8439 Y25.9526
G01 X20.8256 Y26.0758
G01 X20.8245 Y26.0811
G01 X20.7943 Y26.2020
G01 X20.7927 Y26.2072
G01 X20.7507 Y26.3245
G01 X20.7486 Y26.3295
G01 X20.6954 Y26.4422
G01 X20.6928 Y26.4469
G01 X20.6287 Y26.5538
G01 X20.6257 Y26.5583
G01 X20.5515 Y26.6584
G01 X20.5481 Y26.6626
G01 X20.4644 Y26.7550
G01 X20.4606 Y26.7588
G01 X20.3682 Y26.8425
G01 X20.3640 Y26.8459
G01 X20.2639 Y26.9201
G01 X20.2594 Y26.9231
G01 X20.1525 Y26.9872
G01 X20.1478 Y26.9898
G01 X20.0351 Y27.0430
G01 X20.0301 Y27.0451
G01 X19.9128 Y27.0871
G01 X19.9076 Y27.0887
G01 X19.7867 Y27.1189
G01 X19.7814 Y27.1200
G01 X19.6582 Y27.1383
G01 X19.6528 Y27.1388
G01 X19.5283 Y27.1449
G01 X19.5229 Y27.1449
G01 X19.3984 Y27.1388
G01 X19.3930 Y27.1383
G01 X19.2698 Y27.1200
G01 X19.2645 Y27.1189
G01 X19.1436 Y27.0887
G01 X19.1384 Y27.0871
G01 X19.0211 Y27.0451
G01 X19.0161 Y27.0430
G01 X18.9034 Y26.9898
G01 X18.8987 Y26.9872
G01 X18.7918 Y26.9231
G01 X18.7873 Y26.9201
G01 X18.6872 Y26.8459
G01 X18.6830 Y26.8425
G01 X18.5906 Y26.7588
G01 X18.5868 Y26.7550
G01 X18.5031 Y26.6626
G01 X18.4997 Y26.6584
G01 X18.4255 Y26.5583
G01 X18.4225 Y26.5538
G01 X18.3584 Y26.4469
G01 X18.3558 Y26.4422
G01 X18.3026 Y26.3295
G01 X18.3005 Y26.3245
G01 X18.2585 Y26.2072
G01 X18.2569 Y26.2020
G01 X18.2267 Y26.0811
G01 X18.2256 Y26.0758
G01 X18.2073 Y25.9526
G01 X18.2068 Y25.9472
G01 X18.2007 Y25.8227
G01 X18.2007 Y25.8173
G01 X18.2068 Y25.6928
G01 X18.2073 Y25.6874
G01 X18.2256 Y25.5642
G01 X18.2267 Y25.5589
G01 X18.2569 Y25.4380
G01 X18.2585 Y25.4328
G01 X18.3005 Y25.3155
G01 X18.3026 Y25.3105
G01 X18.3558 Y25.1978
G01 X18.3584 Y25.1931
G01 X18.4225 Y25.0862
G01 X18.4255 Y25.0817
G01 X18.4997 Y24.9816
G01 X18.5031 Y24.9774
G01 X18.5868 Y24.8850
G01 X18.5906 Y24.8812
G01 X18.6830 Y24.7975
G01 X18.7591 Y24.7407
G01 X18.7591 Y14.2596
G01 X18.7521 Y14.2583
G01 X18.6070 Y14.2219
G01 X18.6019 Y14.2204
G01 X18.4611 Y14.1700
G01 X18.4561 Y14.1679
G01 X18.3209 Y14.1040
G01 X18.3161 Y14.1014
G01 X18.1878 Y14.0245
G01 X18.1833 Y14.0215
G01 X18.0632 Y13.9324
G01 X18.0590 Y13.9290
G01 X17.9482 Y13.8286
G01 X17.9444 Y13.8248
G01 X17.8440 Y13.7140
G01 X17.8406 Y13.7098
G01 X17.7515 Y13.5897
G01 X17.7485 Y13.5852
G01 X17.6716 Y13.4569
G01 X17.6690 Y13.4521
G01 X17.6051 Y13.3169
G01 X17.6030 Y13.3119
G01 X17.5526 Y13.1711
G01 X17.5511 Y13.1660
G01 X17.5147 Y13.0209
G01 X17.5137 Y13.0156
G01 X17.4917 Y12.8676
G01 X17.4912 Y12.8623
G01 X17.4839 Y12.7129
G01 X17.4839 Y12.7075
G01 X17.4912 Y12.5581
G01 X17.4917 Y12.5528
G01 X17.5137 Y12.4048
G01 X17.5147 Y12.3995
G01 X17.5511 Y12.2544
G01 X17.5526 Y12.2493
G01 X17.6030 Y12.1085
G01 X17.6051 Y12.1035
G01 X17.6690 Y11.9683
G01 X17.6716 Y11.9635
G01 X17.7485 Y11.8352
G01 X17.7515 Y11.8307
G01 X17.8406 Y11.7106
G01 X17.8440 Y11.7064
G01 X17.9444 Y11.5956
G01 X17.9482 Y11.5918
G01 X18.0590 Y11.4914
G01 X18.0632 Y11.4880
G01 X18.1833 Y11.3989
G01 X18.1878 Y11.3959
G01 X18.3161 Y11.3190
G01 X18.3209 Y11.3164
G01 X18.4561 Y11.2525
G01 X18.4611 Y11.2504
G01 X18.6019 Y11.2000
G01 X18.6070 Y11.1985
G01 X18.7521 Y11.1621
G01 X18.7574 Y11.1611
G01 X18.9054 Y11.1391
G01 X18.9107 Y11.1386
G01 X19.0601 Y11.1313
G01 X19.0655 Y11.1313
G01 X19.2149 Y11.1386
G01 X19.2202 Y11.1391
G01 X19.3682 Y11.1611
G01 X19.3735 Y11.1621
G01 X19.5186 Y11.1985
G01 X19.5237 Y11.2000
G01 X19.6645 Y11.2504
G01 X19.6695 Y11.2525
G01 X19.8047 Y11.3164
G01 X19.8095 Y11.3190
G01 X19.9378 Y11.3959
G01 X19.9423 Y11.3989
G01 X20.0624 Y11.4880
G01 X20.0666 Y11.4914
G01 X20.1774 Y11.5918
G01 X20.1812 Y11.5956
G01 X20.2816 Y11.7064
G01 X20.2850 Y11.7106
G01 X20.3741 Y11.8307
G01 X20.3771 Y11.8352
G01 X20.4540 Y11.9635
G01 X20.4566 Y11.9683
G01 X20.5205 Y12.1035
G01 X20.5226 Y12.1085
G01 X20.5730 Y12.2493
G01 X20.5745 Y12.2544
G01 X20.6109 Y12.3995
G01 X20.6119 Y12.4048
G01 X20.6339 Y12.5528
G01 X20.6344 Y12.5581
G01 X20.6417 Y12.7075
G01 X20.6417 Y12.7129
G01 X20.6344 Y12.8623
G01 X20.6339 Y12.8676
G01 X20.6119 Y13.0156
G01 X20.6109 Y13.0209
G01 X20.5745 Y13.1660
G01 X20.5730 Y13.1711
G01 X20.5226 Y13.3119
G01 X20.5205 Y13.3169
G01 X20.4566 Y13.4521
G01 X20.4540 Y13.4569
G01 X20.3771 Y13.5852
G01 X20.3741 Y13.5897
G01 X20.2850 Y13.7098
G01 X20.2816 Y13.7140
G01 X20.1812 Y13.8248
G01 X20.1774 Y13.8286
G01 X20.0666 Y13.9290
G01 X20.0624 Y13.9324
G01 X19.9423 Y14.0215
G01 X19.8857 Y14.0558
G00 Z2.0000
G00 X20.3905 Y14.1782
G01 F25.00
G01 Z-0.0187
G01 F45.00
G01 X20.3662 Y14.2055
G01 X20.3446 Y14.2350
G01 X20.3260 Y14.2665
G01 X20.3106 Y14.2997
G01 X20.2986 Y14.3342
G01 X20.2899 Y14.3697
G01 X20.2848 Y14.4060
G01 X20.2832 Y14.4398
G01 X20.2832 Y23.9868
G01 X20.2848 Y24.0207
G01 X20.2899 Y24.0569
G01 X20.2910 Y24.0622
G01 X20.2986 Y24.0924
G01 X20.3106 Y24.1269
G01 X20.3260 Y24.1601
G01 X20.3286 Y24.1648
G01 X20.3476 Y24.1961
G01 X20.3696 Y24.2253
G01 X20.3924 Y24.2503
G01 X21.2484 Y25.1064
G01 X21.2484 Y26.5336
G01 X20.2392 Y27.5428
G01 X18.8120 Y27.5428
G01 X17.8028 Y26.5336
G01 X17.8028 Y25.1064
G01 X18.2524 Y24.6567
G01 X18.2786 Y24.6275
G01 X18.2972 Y24.6025
G01 X18.3162 Y24.5712
G01 X18.3321 Y24.5383
G01 X18.3447 Y24.5040
G01 X18.3462 Y24.4988
G01 X18.3549 Y24.4633
G01 X18.3600 Y24.4271
G01 X18.3615 Y24.3959
G01 X18.3616 Y14.9590
G01 X18.3594 Y14.9198
G01 X18.3538 Y14.8837
G01 X18.3462 Y14.8534
G01 X18.3342 Y14.8189
G01 X18.3188 Y14.7857
G01 X18.3162 Y14.7810
G01 X18.2972 Y14.7497
G01 X18.2752 Y14.7205
G01 X18.2543 Y14.6974
G01 X17.0860 Y13.5290
G01 X17.0860 Y11.8914
G01 X18.2440 Y10.7334
G01 X19.8816 Y10.7334
G01 X21.0396 Y11.8914
G01 X21.0396 Y13.5290
G01 X20.3905 Y14.1782
G00 Z2.0000
G00 X29.8832 Y24.7710
G01 F25.00
G01 Z-0.0187
G01 F45.00
G01 X29.8886 Y24.7713
G01 X29.8939 Y24.7721
G01 X29.8992 Y24.7734
G01 X29.9042 Y24.7752
G01 X29.9091 Y24.7775
G01 X29.9138 Y24.7803
G01 X29.9181 Y24.7835
G01 X29.9221 Y24.7871
G01 X29.9257 Y24.7911
G01 X29.9289 Y24.7954
G01 X29.9317 Y24.8001
G01 X29.9340 Y24.8050
G01 X29.9358 Y24.8100
G01 X29.9371 Y24.8153
G01 X29.9379 Y24.8206
G01 X29.9382 Y24.8260
G01 X29.9382 Y26.3500
G01 X29.9379 Y26.3554
G01 X29.9371 Y26.3607
G01 X29.9358 Y26.3660
G01 X29.9340 Y26.3710
G01 X29.9317 Y26.3759
G01 X29.9289 Y26.3806
G01 X29.9257 Y26.3849
G01 X29.9221 Y26.3889
G01 X29.9181 Y26.3925
G01 X29.9138 Y26.3957
G01 X29.9091 Y26.3985
G01 X29.9042 Y26.4008
G01 X29.8992 Y26.4026
G01 X29.8939 Y26.4039
G01 X29.8886 Y26.4047
G01 X29.8832 Y26.4050
G01 X28.3592 Y26.4050
G01 X28.3538 Y26.4047
G01 X28.3485 Y26.4039
G01 X28.3432 Y26.4026
G01 X28.3382 Y26.4008
G01 X28.3333 Y26.3985
G01 X28.3286 Y26.3957
G01 X28.3243 Y26.3925
G01 X28.3203 Y26.3889
G01 X28.3167 Y26.3849
G01 X28.3135 Y26.3806
G01 X28.3107 Y26.3759
G01 X28.3084 Y26.3710
G01 X28.3066 Y26.3660
G01 X28.3053 Y26.3607
G01 X28.3045 Y26.3554
G01 X28.3042 Y26.3500
G01 X28.3042 Y25.5676
G01 X28.3037 Y25.5671
G01 X25.9668 Y25.5671
G01 X25.9461 Y25.6010
G01 X25.8868 Y25.6811
G01 X25.8833 Y25.6853
G01 X25.8164 Y25.7592
G01 X25.8126 Y25.7630
G01 X25.7387 Y25.8299
G01 X25.7345 Y25.8334
G01 X25.6544 Y25.8927
G01 X25.6205 Y25.9134
G01 X25.6205 Y27.4565
G01 X25.6179 Y27.5090
G01 X25.6101 Y27.5637
G01 X25.6090 Y27.5690
G01 X25.5969 Y27.6174
G01 X25.5786 Y27.6695
G01 X25.5552 Y27.7196
G01 X25.5526 Y27.7244
G01 X25.5240 Y27.7716
G01 X25.4943 Y27.8117
G01 X25.4555 Y27.8548
G01 X20.3373 Y32.9730
G01 X20.3373 Y37.0500
G01 X20.3343 Y37.1069
G01 X20.3268 Y37.1581
G01 X20.3083 Y37.2527
G01 X20.3682 Y37.2975
G01 X20.4606 Y37.3812
G01 X20.4644 Y37.3850
G01 X20.5481 Y37.4774
G01 X20.5515 Y37.4816
G01 X20.6257 Y37.5817
G01 X20.6287 Y37.5862
G01 X20.6928 Y37.6931
G01 X20.6954 Y37.6978
G01 X20.7486 Y37.8105
G01 X20.7507 Y37.8155
G01 X20.7927 Y37.9328
G01 X20.7943 Y37.9380
G01 X20.8245 Y38.0589
G01 X20.8256 Y38.0642
G01 X20.8439 Y38.1874
G01 X20.8444 Y38.1928
G01 X20.8505 Y38.3173
G01 X20.8505 Y38.3227
G01 X20.8444 Y38.4472
G01 X20.8439 Y38.4526
G01 X20.8256 Y38.5758
G01 X20.8245 Y38.5811
G01 X20.7943 Y38.7020
G01 X20.7927 Y38.7072
G01 X20.7507 Y38.8245
G01 X20.7486 Y38.8295
G01 X20.6954 Y38.9422
G01 X20.6928 Y38.9469
G01 X20.6287 Y39.0538
G01 X20.6257 Y39.0583
G01 X20.5515 Y39.1584
G01 X20.5481 Y39.1626
G01 X20.4644 Y39.2550
G01 X20.4606 Y39.2588
G01 X20.3682 Y39.3425
G01 X20.3640 Y39.3459
G01 X20.2639 Y39.4201
G01 X20.2594 Y39.4231
G01 X20.1525 Y39.4872
G01 X20.1478 Y39.4898
G01 X20.0351 Y39.5430
G01 X20.0301 Y39.5451
G01 X19.9128 Y39.5871
G01 X19.9076 Y39.5887
G01 X19.7867 Y39.6189
G01 X19.7814 Y39.6200
G01 X19.6582 Y39.6383
G01 X19.6528 Y39.6388
G01 X19.5283 Y39.6449
G01 X19.5229 Y39.6449
G01 X19.3984 Y39.6388
G01 X19.3930 Y39.6383
G01 X19.2698 Y39.6200
G01 X19.2645 Y39.6189
G01 X19.1436 Y39.5887
G01 X19.1384 Y39.5871
G01 X19.0211 Y39.5451
G01 X19.0161 Y39.5430
G01 X18.9034 Y39.4898
G01 X18.8987 Y39.4872
G01 X18.7918 Y39.4231
G01 X18.7873 Y39.4201
G01 X18.6872 Y39.3459
G01 X18.6830 Y39.3425
G01 X18.5906 Y39.2588
G01 X18.5868 Y39.2550
G01 X18.5031 Y39.1626
G01 X18.4997 Y39.1584
G01 X18.4255 Y39.0583
G01 X18.4225 Y39.0538
G01 X18.3584 Y38.9469
G01 X18.3558 Y38.9422
G01 X18.3026 Y38.8295
G01 X18.3005 Y38.8245
G01 X18.2585 Y38.7072
G01 X18.2569 Y38.7020
G01 X18.2267 Y38.5811
G01 X18.2256 Y38.5758
G01 X18.2073 Y38.4526
G01 X18.2068 Y38.4472
G01 X18.2007 Y38.3227
G01 X18.2007 Y38.3173
G01 X18.2068 Y38.1928
G01 X18.2073 Y38.1874
G01 X18.2256 Y38.0642
G01 X18.2267 Y38.0589
G01 X18.2569 Y37.9380
G01 X18.2585 Y37.9328
G01 X18.3005 Y37.8155
G01 X18.3026 Y37.8105
G01 X18.3558 Y37.6978
G01 X18.3584 Y37.6931
G01 X18.4225 Y37.5862
G01 X18.4255 Y37.5817
G01 X18.4997 Y37.4816
G01 X18.5031 Y37.4774
G01 X18.5868 Y37.3850
G01 X18.5906 Y37.3812
G01 X18.6830 Y37.2975
G01 X18.6872 Y37.2941
G01 X18.7873 Y37.2199
G01 X18.7918 Y37.2169
G01 X18.8987 Y37.1528
G01 X18.9034 Y37.1502
G01 X19.0161 Y37.0970
G01 X19.0211 Y37.0949
G01 X19.1384 Y37.0529
G01 X19.2027 Y37.0365
G01 X19.2107 Y36.9954
G01 X19.2107 Y32.7397
G01 X19.2133 Y32.6872
G01 X19.2211 Y32.6325
G01 X19.2343 Y32.5788
G01 X19.2526 Y32.5267
G01 X19.2760 Y32.4766
G01 X19.3042 Y32.4291
G01 X19.3369 Y32.3845
G01 X19.3757 Y32.3414
G01 X24.4939 Y27.2232
G01 X24.4939 Y25.9134
G01 X24.4600 Y25.8927
G01 X24.3799 Y25.8334
G01 X24.3757 Y25.8299
G01 X24.3018 Y25.7630
G01 X24.2980 Y25.7592
G01 X24.2311 Y25.6853
G01 X24.2276 Y25.6811
G01 X24.1683 Y25.6010
G01 X24.1653 Y25.5965
G01 X24.1140 Y25.5110
G01 X24.1114 Y25.5063
G01 X24.0688 Y25.4161
G01 X24.0668 Y25.4111
G01 X24.0332 Y25.3173
G01 X24.0316 Y25.3121
G01 X24.0074 Y25.2154
G01 X24.0063 Y25.2101
G01 X23.9917 Y25.1115
G01 X23.9912 Y25.1061
G01 X23.9863 Y25.0065
G01 X23.9863 Y25.0011
G01 X23.9912 Y24.9015
G01 X23.9917 Y24.8961
G01 X24.0063 Y24.7975
G01 X24.0074 Y24.7922
G01 X24.0316 Y24.6955
G01 X24.0332 Y24.6903
G01 X24.0668 Y24.5965
G01 X24.0688 Y24.5915
G01 X24.1114 Y24.5013
G01 X24.1140 Y24.4966
G01 X24.1653 Y24.4111
G01 X24.1683 Y24.4066
G01 X24.2276 Y24.3265
G01 X24.2311 Y24.3223
G01 X24.2980 Y24.2484
G01 X24.3018 Y24.2446
G01 X24.3757 Y24.1777
G01 X24.3799 Y24.1742
G01 X24.4600 Y24.1149
G01 X24.4645 Y24.1119
G01 X24.5500 Y24.0606
G01 X24.5547 Y24.0580
G01 X24.6449 Y24.0154
G01 X24.6499 Y24.0134
G01 X24.7437 Y23.9798
G01 X24.7489 Y23.9782
G01 X24.8456 Y23.9540
G01 X24.8509 Y23.9529
G01 X24.9495 Y23.9383
G01 X24.9549 Y23.9378
G01 X25.0545 Y23.9329
G01 X25.0599 Y23.9329
G01 X25.1595 Y23.9378
G01 X25.1649 Y23.9383
G01 X25.2635 Y23.9529
G01 X25.2688 Y23.9540
G01 X25.3655 Y23.9782
G01 X25.3707 Y23.9798
G01 X25.4645 Y24.0134
G01 X25.4695 Y24.0154
G01 X25.5597 Y24.0580
G01 X25.5644 Y24.0606
G01 X25.6499 Y24.1119
G01 X25.6544 Y24.1149
G01 X25.7345 Y24.1742
G01 X25.7387 Y24.1777
G01 X25.8126 Y24.2446
G01 X25.8164 Y24.2484
G01 X25.8833 Y24.3223
G01 X25.8868 Y24.3265
G01 X25.9461 Y24.4066
G01 X25.9668 Y24.4405
G01 X28.5370 Y24.4405
G01 X28.5895 Y24.4431
G01 X28.6442 Y24.4509
G01 X28.6495 Y24.4520
G01 X28.7031 Y24.4656
G01 X28.7550 Y24.4845
G01 X28.8001 Y24.5058
G01 X28.8476 Y24.5340
G01 X28.8922 Y24.5667
G01 X28.9333 Y24.6037
G01 X29.1008 Y24.7710
G01 X29.8832 Y24.7710
G00 Z2.0000
G00 X31.9152 Y24.7710
G01 F25.00
G01 Z-0.0187
G01 F45.00
G01 X31.9206 Y24.7713
G01 X31.9259 Y24.7721
G01 X31.9312 Y24.7734
G01 X31.9362 Y24.7752
G01 X31.9411 Y24.7775
G01 X31.9458 Y24.7803
G01 X31.9501 Y24.7835
G01 X31.9541 Y24.7871
G01 X31.9577 Y24.7911
G01 X31.9609 Y24.7954
G01 X31.9637 Y24.8001
G01 X31.9660 Y24.8050
G01 X31.9678 Y24.8100
G01 X31.9691 Y24.8153
G01 X31.9699 Y24.8206
G01 X31.9702 Y24.8260
G01 X31.9702 Y26.3500
G01 X31.9699 Y26.3554
G01 X31.9691 Y26.3607
G01 X31.9678 Y26.3660
G01 X31.9660 Y26.3710
G01 X31.9637 Y26.3759
G01 X31.9609 Y26.3806
G01 X31.9577 Y26.3849
G01 X31.9541 Y26.3889
G01 X31.9501 Y26.3925
G01 X31.9458 Y26.3957
G01 X31.9411 Y26.3985
G01 X31.9362 Y26.4008
G01 X31.9312 Y26.4026
G01 X31.9259 Y26.4039
G01 X31.9206 Y26.4047
G01 X31.9152 Y26.4050
G01 X30.3912 Y26.4050
G01 X30.3858 Y26.4047
G01 X30.3805 Y26.4039
G01 X30.3752 Y26.4026
G01 X30.3702 Y26.4008
G01 X30.3653 Y26.3985
G01 X30.3606 Y26.3957
G01 X30.3563 Y26.3925
G01 X30.3523 Y26.3889
G01 X30.3487 Y26.3849
G01 X30.3455 Y26.3806
G01 X30.3427 Y26.3759
G01 X30.3404 Y26.3710
G01 X30.3386 Y26.3660
G01 X30.3373 Y26.3607
G01 X30.3365 Y26.3554
G01 X30.3362 Y26.3500
G01 X30.3362 Y24.8260
G01 X30.3365 Y24.8206
G01 X30.3373 Y24.8153
G01 X30.3386 Y24.8100
G01 X30.3404 Y24.8050
G01 X30.3427 Y24.8001
G01 X30.3455 Y24.7954
G01 X30.3487 Y24.7911
G01 X30.3523 Y24.7871
G01 X30.3563 Y24.7835
G01 X30.3606 Y24.7803
G01 X30.3653 Y24.7775
G01 X30.3702 Y24.7752
G01 X30.3752 Y24.7734
G01 X30.3805 Y24.7721
G01 X30.3858 Y24.7713
G01 X30.3912 Y24.7710
G01 X30.5899 Y24.7710
G01 X30.5899 Y23.7730
G01 X29.0145 Y22.1975
G01 X28.8040 Y22.1975
G01 X28.7789 Y22.2309
G01 X28.7120 Y22.3048
G01 X28.7082 Y22.3086
G01 X28.6343 Y22.3755
G01 X28.6301 Y22.3790
G01 X28.5500 Y22.4383
G01 X28.5455 Y22.4413
G01 X28.4600 Y22.4926
G01 X28.4553 Y22.4952
G01 X28.3651 Y22.5378
G01 X28.3601 Y22.5398
G01 X28.2663 Y22.5734
G01 X28.2611 Y22.5750
G01 X28.1644 Y22.5992
G01 X28.1591 Y22.6003
G01 X28.0605 Y22.6149
G01 X28.0551 Y22.6154
G01 X27.9555 Y22.6203
G01 X27.9501 Y22.6203
G01 X27.8505 Y22.6154
G01 X27.8451 Y22.6149
G01 X27.7465 Y22.6003
G01 X27.7412 Y22.5992
G01 X27.6445 Y22.5750
G01 X27.6393 Y22.5734
G01 X27.5455 Y22.5398
G01 X27.5405 Y22.5378
G01 X27.4503 Y22.4952
G01 X27.4456 Y22.4926
G01 X27.3601 Y22.4413
G01 X27.3556 Y22.4383
G01 X27.2755 Y22.3790
G01 X27.2713 Y22.3755
G01 X27.1974 Y22.3086
G01 X27.1936 Y22.3048
G01 X27.1267 Y22.2309
G01 X27.1232 Y22.2267
G01 X27.0639 Y22.1466
G01 X27.0609 Y22.1421
G01 X27.0096 Y22.0566
G01 X27.0070 Y22.0519
G01 X26.9644 Y21.9617
G01 X26.9624 Y21.9567
G01 X26.9288 Y21.8629
G01 X26.9272 Y21.8577
G01 X26.9030 Y21.7610
G01 X26.9019 Y21.7557
G01 X26.8873 Y21.6571
G01 X26.8868 Y21.6517
G01 X26.8819 Y21.5521
G01 X26.8819 Y21.5467
G01 X26.8868 Y21.4471
G01 X26.8873 Y21.4417
G01 X26.9019 Y21.3431
G01 X26.9030 Y21.3378
G01 X26.9272 Y21.2411
G01 X26.9288 Y21.2359
G01 X26.9624 Y21.1421
G01 X26.9644 Y21.1371
G01 X27.0070 Y21.0469
G01 X27.0096 Y21.0422
G01 X27.0609 Y20.9567
G01 X27.0639 Y20.9522
G01 X27.1232 Y20.8721
G01 X27.1267 Y20.8679
G01 X27.1936 Y20.7940
G01 X27.1974 Y20.7902
G01 X27.2713 Y20.7233
G01 X27.2755 Y20.7198
G01 X27.3556 Y20.6605
G01 X27.3601 Y20.6575
G01 X27.4456 Y20.6062
G01 X27.4503 Y20.6036
G01 X27.5405 Y20.5610
G01 X27.5455 Y20.5590
G01 X27.6393 Y20.5254
G01 X27.6445 Y20.5238
G01 X27.7412 Y20.4996
G01 X27.7465 Y20.4985
G01 X27.8451 Y20.4839
G01 X27.8505 Y20.4834
G01 X27.9501 Y20.4785
G01 X27.9555 Y20.4785
G01 X28.0551 Y20.4834
G01 X28.0605 Y20.4839
G01 X28.1591 Y20.4985
G01 X28.1644 Y20.4996
G01 X28.2611 Y20.5238
G01 X28.2663 Y20.5254
G01 X28.3601 Y20.5590
G01 X28.3651 Y20.5610
G01 X28.4553 Y20.6036
G01 X28.4600 Y20.6062
G01 X28.5455 Y20.6575
G01 X28.5500 Y20.6605
G01 X28.6301 Y20.7198
G01 X28.6343 Y20.7233
G01 X28.7082 Y20.7902
G01 X28.7120 Y20.7940
G01 X28.7789 Y20.8679
G01 X28.7824 Y20.8721
G01 X28.8417 Y20.9522
G01 X28.8447 Y20.9567
G01 X28.8960 Y21.0422
G01 X28.9099 Y21.0710
G01 X29.2478 Y21.0710
G01 X29.3003 Y21.0735
G01 X29.3550 Y21.0813
G01 X29.4087 Y21.0945
G01 X29.4139 Y21.0961
G01 X29.4658 Y21.1150
G01 X29.5157 Y21.1388
G01 X29.5629 Y21.1675
G01 X29.6030 Y21.1972
G01 X29.6461 Y21.2360
G01 X31.5515 Y23.1414
G01 X31.5903 Y23.1845
G01 X31.6230 Y23.2290
G01 X31.6512 Y23.2765
G01 X31.6725 Y23.3216
G01 X31.6914 Y23.3736
G01 X31.7050 Y23.4271
G01 X31.7134 Y23.4818
G01 X31.7139 Y23.4871
G01 X31.7165 Y23.5397
G01 X31.7165 Y24.7710
G01 X31.9152 Y24.7710
G00 Z2.0000
G00 X32.8125 Y24.3732
G01 F25.00
G01 Z-0.0187
G01 F45.00
G01 X32.8125 Y24.7710
G01 X32.4232 Y24.7710
G01 X32.4178 Y24.7713
G01 X32.4125 Y24.7721
G01 X32.4072 Y24.7734
G01 X32.4022 Y24.7752
G01 X32.3973 Y24.7775
G01 X32.3926 Y24.7803
G01 X32.3883 Y24.7835
G01 X32.3843 Y24.7871
G01 X32.3807 Y24.7911
G01 X32.3775 Y24.7954
G01 X32.3747 Y24.8001
G01 X32.3724 Y24.8050
G01 X32.3706 Y24.8100
G01 X32.3693 Y24.8153
G01 X32.3685 Y24.8206
G01 X32.3682 Y24.8260
G01 X32.3682 Y26.3500
G01 X32.3685 Y26.3554
G01 X32.3693 Y26.3607
G01 X32.3706 Y26.3660
G01 X32.3724 Y26.3710
G01 X32.3747 Y26.3759
G01 X32.3775 Y26.3806
G01 X32.3807 Y26.3849
G01 X32.3843 Y26.3889
G01 X32.3883 Y26.3925
G01 X32.3926 Y26.3957
G01 X32.3973 Y26.3985
G01 X32.4022 Y26.4008
G01 X32.4072 Y26.4026
G01 X32.4125 Y26.4039
G01 X32.4178 Y26.4047
G01 X32.4232 Y26.4050
G01 X32.8125 Y26.4050
G01 X32.8125 Y26.8028
G01 X27.9064 Y26.8028
G01 X27.9063 Y26.3346
G01 X27.9042 Y26.2981
G01 X27.8986 Y26.2620
G01 X27.8910 Y26.2317
G01 X27.8895 Y26.2265
G01 X27.8769 Y26.1922
G01 X27.8610 Y26.1593
G01 X27.8420 Y26.1280
G01 X27.8200 Y26.0988
G01 X27.7991 Y26.0757
G01 X27.7722 Y26.0510
G01 X27.7430 Y26.0290
G01 X27.7385 Y26.0260
G01 X27.7070 Y26.0074
G01 X27.6738 Y25.9920
G01 X27.6393 Y25.9800
G01 X27.6038 Y25.9713
G01 X27.5675 Y25.9662
G01 X27.5337 Y25.9646
G01 X26.3907 Y25.9646
G01 X26.3569 Y25.9662
G01 X26.3206 Y25.9713
G01 X26.2851 Y25.9800
G01 X26.2506 Y25.9920
G01 X26.2174 Y26.0074
G01 X26.1859 Y26.0260
G01 X26.1564 Y26.0476
G01 X26.1291 Y26.0719
G01 X26.1044 Y26.0988
G01 X26.0824 Y26.1280
G01 X26.0634 Y26.1593
G01 X26.0608 Y26.1640
G01 X26.0454 Y26.1972
G01 X26.0334 Y26.2317
G01 X26.0258 Y26.2620
G01 X26.0247 Y26.2672
G01 X26.0196 Y26.3035
G01 X26.0180 Y26.3373
G01 X26.0180 Y27.8545
G01 X20.8440 Y33.0285
G01 X20.8178 Y33.0578
G01 X20.7962 Y33.0873
G01 X20.7776 Y33.1188
G01 X20.7622 Y33.1519
G01 X20.7502 Y33.1865
G01 X20.7415 Y33.2220
G01 X20.7364 Y33.2582
G01 X20.7348 Y33.2920
G01 X20.7348 Y36.9384
G01 X20.7364 Y36.9723
G01 X20.7415 Y37.0085
G01 X20.7426 Y37.0138
G01 X20.7502 Y37.0440
G01 X20.7622 Y37.0785
G01 X20.7776 Y37.1117
G01 X20.7802 Y37.1164
G01 X20.7962 Y37.1432
G01 X20.8178 Y37.1727
G01 X20.8440 Y37.2019
G01 X21.2484 Y37.6064
G01 X21.2484 Y39.0336
G01 X20.2392 Y40.0428
G01 X18.8120 Y40.0428
G01 X17.8028 Y39.0336
G01 X17.8028 Y37.6064
G01 X18.7059 Y36.7032
G01 X18.7268 Y36.6801
G01 X18.7488 Y36.6509
G01 X18.7678 Y36.6196
G01 X18.7704 Y36.6149
G01 X18.7837 Y36.5867
G01 X18.7963 Y36.5524
G01 X18.7978 Y36.5472
G01 X18.8065 Y36.5117
G01 X18.8116 Y36.4755
G01 X18.8132 Y36.4416
G01 X18.8132 Y32.3417
G01 X23.9872 Y27.1677
G01 X24.0134 Y27.1385
G01 X24.0350 Y27.1089
G01 X24.0536 Y27.0774
G01 X24.0669 Y27.0493
G01 X24.0795 Y27.0149
G01 X24.0886 Y26.9795
G01 X24.0897 Y26.9742
G01 X24.0948 Y26.9380
G01 X24.0964 Y26.9042
G01 X24.0964 Y26.2746
G01 X24.0948 Y26.2407
G01 X24.0897 Y26.2045
G01 X24.0810 Y26.1690
G01 X24.0795 Y26.1638
G01 X24.0669 Y26.1295
G01 X24.0536 Y26.1013
G01 X24.0350 Y26.0698
G01 X24.0320 Y26.0653
G01 X24.0100 Y26.0361
G01 X23.9872 Y26.0111
G01 X23.5884 Y25.6122
G01 X23.5884 Y24.3954
G01 X24.4488 Y23.5350
G01 X25.6656 Y23.5350
G01 X26.0645 Y23.9338
G01 X26.0937 Y23.9600
G01 X26.1187 Y23.9786
G01 X26.1500 Y23.9976
G01 X26.1547 Y24.0002
G01 X26.1879 Y24.0156
G01 X26.2224 Y24.0276
G01 X26.2526 Y24.0352
G01 X26.2888 Y24.0408
G01 X26.3280 Y24.0430
G01 X28.9350 Y24.0430
G01 X29.1560 Y24.2640
G01 X29.1811 Y24.2868
G01 X29.2103 Y24.3088
G01 X29.2415 Y24.3278
G01 X29.2463 Y24.3304
G01 X29.2745 Y24.3437
G01 X29.3088 Y24.3563
G01 X29.3140 Y24.3578
G01 X29.3495 Y24.3665
G01 X29.3857 Y24.3716
G01 X29.4168 Y24.3731
G01 X29.7309 Y24.3731
G01 X29.7621 Y24.3716
G01 X29.7983 Y24.3665
G01 X29.8338 Y24.3578
G01 X29.8390 Y24.3563
G01 X29.8733 Y24.3437
G01 X29.9015 Y24.3304
G01 X29.9330 Y24.3118
G01 X29.9625 Y24.2902
G01 X29.9898 Y24.2659
G01 X30.0145 Y24.2390
G01 X30.0365 Y24.2098
G01 X30.0395 Y24.2053
G01 X30.0581 Y24.1738
G01 X30.0735 Y24.1406
G01 X30.0856 Y24.1061
G01 X30.0931 Y24.0758
G01 X30.0988 Y24.0397
G01 X30.1008 Y24.0032
G01 X30.0993 Y23.9667
G01 X30.0988 Y23.9613
G01 X30.0931 Y23.9252
G01 X30.0856 Y23.8949
G01 X30.0735 Y23.8604
G01 X30.0714 Y23.8554
G01 X30.0556 Y23.8225
G01 X30.0395 Y23.7958
G01 X30.0180 Y23.7662
G01 X29.9918 Y23.7370
G01 X29.1806 Y22.9259
G01 X29.1514 Y22.8996
G01 X29.1219 Y22.8781
G01 X29.0904 Y22.8595
G01 X29.0572 Y22.8441
G01 X29.0227 Y22.8320
G01 X28.9871 Y22.8234
G01 X28.9509 Y22.8183
G01 X28.9198 Y22.8168
G01 X28.8833 Y22.8183
G01 X28.8779 Y22.8188
G01 X28.8418 Y22.8245
G01 X28.8064 Y22.8336
G01 X28.7720 Y22.8462
G01 X28.7391 Y22.8620
G01 X28.7123 Y22.8781
G01 X28.6828 Y22.8996
G01 X28.6536 Y22.9259
G01 X28.5612 Y23.0182
G01 X27.3444 Y23.0182
G01 X26.4840 Y22.1578
G01 X26.4840 Y20.9410
G01 X27.3444 Y20.0806
G01 X28.5612 Y20.0806
G01 X29.0449 Y20.5643
G01 X29.0741 Y20.5905
G01 X29.0992 Y20.6090
G01 X29.1304 Y20.6281
G01 X29.1633 Y20.6439
G01 X29.1977 Y20.6565
G01 X29.2028 Y20.6581
G01 X29.2384 Y20.6667
G01 X29.2746 Y20.6718
G01 X29.3084 Y20.6734
G01 X29.6458 Y20.6734
G01 X32.1140 Y23.1417
G01 X32.1141 Y24.0032
G01 X32.1162 Y24.0397
G01 X32.1218 Y24.0758
G01 X32.1294 Y24.1061
G01 X32.1309 Y24.1113
G01 X32.1435 Y24.1456
G01 X32.1594 Y24.1785
G01 X32.1784 Y24.2098
G01 X32.2004 Y24.2390
G01 X32.2251 Y24.2659
G01 X32.2524 Y24.2902
G01 X32.2819 Y24.3118
G01 X32.3134 Y24.3304
G01 X32.3466 Y24.3458
G01 X32.3811 Y24.3578
G01 X32.4114 Y24.3654
G01 X32.4475 Y24.3710
G01 X32.4840 Y24.3731
G01 X32.8125 Y24.3732
G00 Z2.0000
G00 X34.4000 Y25.2153
G01 F25.00
G01 Z-0.0187
G01 F45.00
G01 X34.0022 Y25.2153
G01 X34.0022 Y24.8260
G01 X34.0019 Y24.8206
G01 X34.0011 Y24.8153
G01 X33.9998 Y24.8100
G01 X33.9980 Y24.8050
G01 X33.9957 Y24.8001
G01 X33.9929 Y24.7954
G01 X33.9897 Y24.7911
G01 X33.9861 Y24.7871
G01 X33.9821 Y24.7835
G01 X33.9778 Y24.7803
G01 X33.9731 Y24.7775
G01 X33.9682 Y24.7752
G01 X33.9632 Y24.7734
G01 X33.9579 Y24.7721
G01 X33.9526 Y24.7713
G01 X33.9472 Y24.7710
G01 X33.5579 Y24.7710
G01 X33.5579 Y24.3732
G01 X34.4000 Y24.3732
G01 X34.4000 Y25.2153
G00 Z2.0000
G00 X34.0022 Y25.9607
G01 F25.00
G01 Z-0.0187
G01 F45.00
G01 X34.4000 Y25.9607
G01 X34.4000 Y26.8028
G01 X33.5579 Y26.8028
G01 X33.5579 Y26.4050
G01 X33.9472 Y26.4050
G01 X33.9526 Y26.4047
G01 X33.9579 Y26.4039
G01 X33.9632 Y26.4026
G01 X33.9682 Y26.4008
G01 X33.9731 Y26.3985
G01 X33.9778 Y26.3957
G01 X33.9821 Y26.3925
G01 X33.9861 Y26.3889
G01 X33.9897 Y26.3849
G01 X33.9929 Y26.3806
G01 X33.9957 Y26.3759
G01 X33.9980 Y26.3710
G01 X33.9998 Y26.3660
G01 X34.0011 Y26.3607
G01 X34.0019 Y26.3554
G01 X34.0022 Y26.3500
G01 X34.0022 Y25.9607
G00 Z2.0000
G00 X37.4932 Y15.3408
G01 F25.00
G01 Z-0.0187
G01 F45.00
G01 X35.0438 Y15.3408
G01 X35.0438 Y12.4987
G01 X35.4416 Y12.4987
G01 X35.4416 Y12.8880
G01 X35.4419 Y12.8934
G01 X35.4427 Y12.8987
G01 X35.4440 Y12.9040
G01 X35.4458 Y12.9090
G01 X35.4481 Y12.9139
G01 X35.4509 Y12.9186
G01 X35.4541 Y12.9229
G01 X35.4577 Y12.9269
G01 X35.4617 Y12.9305
G01 X35.4660 Y12.9337
G01 X35.4707 Y12.9365
G01 X35.4756 Y12.9388
G01 X35.4806 Y12.9406
G01 X35.4859 Y12.9419
G01 X35.4912 Y12.9427
G01 X35.4966 Y12.9430
G01 X37.0206 Y12.9430
G01 X37.0260 Y12.9427
G01 X37.0313 Y12.9419
G01 X37.0366 Y12.9406
G01 X37.0416 Y12.9388
G01 X37.0465 Y12.9365
G01 X37.0512 Y12.9337
G01 X37.0555 Y12.9305
G01 X37.0595 Y12.9269
G01 X37.0631 Y12.9229
G01 X37.0663 Y12.9186
G01 X37.0691 Y12.9139
G01 X37.0714 Y12.9090
G01 X37.0732 Y12.9040
G01 X37.0745 Y12.8987
G01 X37.0753 Y12.8934
G01 X37.0756 Y12.8880
G01 X37.0756 Y12.4987
G01 X37.4734 Y12.4987
G01 X37.4734 Y12.7925
G01 X37.4750 Y12.8263
G01 X37.4801 Y12.8626
G01 X37.4888 Y12.8981
G01 X37.4903 Y12.9033
G01 X37.5029 Y12.9376
G01 X37.5188 Y12.9705
G01 X37.5348 Y12.9973
G01 X37.5564 Y13.0268
G01 X37.5807 Y13.0541
G01 X37.5845 Y13.0579
G01 X37.6076 Y13.0788
G01 X37.6368 Y13.1008
G01 X37.6681 Y13.1198
G01 X37.7010 Y13.1357
G01 X37.7353 Y13.1483
G01 X37.7405 Y13.1498
G01 X37.7708 Y13.1574
G01 X37.8069 Y13.1630
G01 X37.8461 Y13.1652
G01 X38.6108 Y13.1651
G01 X38.6473 Y13.1630
G01 X38.6834 Y13.1574
G01 X38.7137 Y13.1498
G01 X38.7189 Y13.1483
G01 X38.7532 Y13.1357
G01 X38.7861 Y13.1198
G01 X38.8174 Y13.1008
G01 X38.8466 Y13.0788
G01 X38.8697 Y13.0579
G01 X38.8944 Y13.0310
G01 X38.9164 Y13.0018
G01 X38.9354 Y12.9705
G01 X38.9513 Y12.9376
G01 X38.9639 Y12.9033
G01 X38.9654 Y12.8981
G01 X38.9741 Y12.8626
G01 X38.9792 Y12.8263
G01 X38.9807 Y12.7952
G01 X38.9808 Y12.5241
G01 X39.3786 Y12.5241
G01 X39.3789 Y12.6138
G01 X39.3797 Y12.6191
G01 X39.3810 Y12.6244
G01 X39.3828 Y12.6294
G01 X39.3851 Y12.6343
G01 X39.3879 Y12.6390
G01 X39.3911 Y12.6433
G01 X39.3947 Y12.6473
G01 X39.6997 Y12.9523
G01 X39.7037 Y12.9559
G01 X39.7080 Y12.9591
G01 X39.7127 Y12.9619
G01 X39.7176 Y12.9642
G01 X39.7226 Y12.9660
G01 X39.7279 Y12.9673
G01 X39.7332 Y12.9681
G01 X39.7386 Y12.9684
G01 X41.6686 Y12.9684
G01 X41.6740 Y12.9681
G01 X41.6793 Y12.9673
G01 X41.6846 Y12.9660
G01 X41.6896 Y12.9642
G01 X41.6945 Y12.9619
G01 X41.6992 Y12.9591
G01 X41.7035 Y12.9559
G01 X41.7075 Y12.9523
G01 X42.0125 Y12.6473
G01 X42.0161 Y12.6433
G01 X42.0193 Y12.6390
G01 X42.0221 Y12.6343
G01 X42.0244 Y12.6294
G01 X42.0262 Y12.6244
G01 X42.0275 Y12.6191
G01 X42.0283 Y12.6138
G01 X42.0286 Y12.5241
G01 X42.4264 Y12.5241
G01 X42.4264 Y13.2055
G01 X42.4286 Y13.2447
G01 X42.4342 Y13.2808
G01 X42.4418 Y13.3111
G01 X42.4538 Y13.3456
G01 X42.4692 Y13.3788
G01 X42.4718 Y13.3835
G01 X42.4908 Y13.4148
G01 X42.5128 Y13.4440
G01 X42.5375 Y13.4709
G01 X42.5606 Y13.4918
G01 X42.5898 Y13.5138
G01 X42.6211 Y13.5328
G01 X42.6258 Y13.5354
G01 X42.6590 Y13.5508
G01 X42.6935 Y13.5628
G01 X42.7238 Y13.5704
G01 X42.7599 Y13.5760
G01 X42.7991 Y13.5782
G01 X43.5146 Y13.5782
G01 X45.9646 Y16.0282
G01 X45.9897 Y16.0510
G01 X46.0189 Y16.0730
G01 X46.0234 Y16.0760
G01 X46.0549 Y16.0946
G01 X46.0830 Y16.1079
G01 X46.1174 Y16.1205
G01 X46.1225 Y16.1220
G01 X46.1581 Y16.1306
G01 X46.1943 Y16.1358
G01 X46.2254 Y16.1373
G01 X46.2308 Y16.1373
G01 X46.2673 Y16.1352
G01 X46.3034 Y16.1296
G01 X46.3337 Y16.1220
G01 X46.3389 Y16.1205
G01 X46.3732 Y16.1079
G01 X46.4014 Y16.0946
G01 X46.4329 Y16.0760
G01 X46.4374 Y16.0730
G01 X46.4666 Y16.0510
G01 X46.4897 Y16.0301
G01 X46.5144 Y16.0031
G01 X46.5364 Y15.9739
G01 X46.5394 Y15.9694
G01 X46.5580 Y15.9379
G01 X46.5713 Y15.9098
G01 X46.5839 Y15.8754
G01 X46.5854 Y15.8703
G01 X46.5930 Y15.8400
G01 X46.5986 Y15.8039
G01 X46.6007 Y15.7674
G01 X46.6008 Y10.9366
G01 X48.0280 Y10.9365
G01 X48.0591 Y10.9350
G01 X48.0953 Y10.9299
G01 X48.1308 Y10.9212
G01 X48.1360 Y10.9197
G01 X48.1703 Y10.9071
G01 X48.1985 Y10.8938
G01 X48.2033 Y10.8912
G01 X48.2345 Y10.8722
G01 X48.2637 Y10.8502
G01 X48.2888 Y10.8274
G01 X51.3861 Y7.7301
G01 X51.3954 Y7.7284
G01 X51.4256 Y7.7208
G01 X51.4308 Y7.7193
G01 X51.4651 Y7.7067
G01 X51.4933 Y7.6934
G01 X51.5248 Y7.6748
G01 X51.5293 Y7.6718
G01 X51.5585 Y7.6498
G01 X51.5835 Y7.6270
G01 X51.9824 Y7.2282
G01 X53.1992 Y7.2282
G01 X54.0596 Y8.0886
G01 X54.0596 Y9.3054
G01 X53.4733 Y9.8918
G01 X53.4505 Y9.9168
G01 X53.4285 Y9.9460
G01 X53.4255 Y9.9505
G01 X53.4069 Y9.9820
G01 X53.3936 Y10.0102
G01 X53.3810 Y10.0445
G01 X53.3794 Y10.0497
G01 X53.3708 Y10.0852
G01 X53.3657 Y10.1215
G01 X53.3641 Y10.1553
G01 X53.3641 Y11.3785
G01 X53.3657 Y11.4123
G01 X53.3708 Y11.4485
G01 X53.3794 Y11.4841
G01 X53.3915 Y11.5186
G01 X53.4069 Y11.5517
G01 X53.4255 Y11.5832
G01 X53.4470 Y11.6128
G01 X53.4733 Y11.6420
G01 X56.3710 Y14.5398
G01 X56.3710 Y29.7960
G01 X53.8304 Y32.3366
G01 X44.5146 Y32.3366
G01 X44.4753 Y32.3388
G01 X44.4392 Y32.3444
G01 X44.4038 Y32.3535
G01 X44.3695 Y32.3661
G01 X44.3365 Y32.3820
G01 X44.3053 Y32.4010
G01 X44.2761 Y32.4230
G01 X44.2492 Y32.4477
G01 X44.2248 Y32.4750
G01 X44.2033 Y32.5045
G01 X44.1847 Y32.5360
G01 X44.1714 Y32.5642
G01 X44.1588 Y32.5985
G01 X44.1496 Y32.6340
G01 X44.1440 Y32.6701
G01 X44.1420 Y32.7066
G01 X44.1435 Y32.7431
G01 X44.1486 Y32.7793
G01 X44.1572 Y32.8149
G01 X44.1588 Y32.8200
G01 X44.1714 Y32.8544
G01 X44.1847 Y32.8825
G01 X44.2033 Y32.9140
G01 X44.2248 Y32.9436
G01 X44.2492 Y32.9708
G01 X44.7686 Y33.4904
G01 X44.7686 Y33.6735
G01 X44.2936 Y33.6735
G01 X44.2580 Y33.5989
G01 X44.2132 Y33.5240
G01 X44.1582 Y33.4495
G01 X44.0962 Y33.3806
G01 X44.0924 Y33.3768
G01 X44.0235 Y33.3148
G01 X43.9490 Y33.2598
G01 X43.8694 Y33.2125
G01 X43.7905 Y33.1752
G01 X43.7034 Y33.1437
G01 X43.6982 Y33.1421
G01 X43.6083 Y33.1199
G01 X43.5166 Y33.1065
G01 X43.4241 Y33.1023
G01 X43.3370 Y33.1065
G01 X43.2453 Y33.1199
G01 X43.1554 Y33.1421
G01 X43.0681 Y33.1731
G01 X42.9842 Y33.2125
G01 X42.9046 Y33.2598
G01 X42.8301 Y33.3148
G01 X42.7612 Y33.3768
G01 X42.7574 Y33.3806
G01 X42.6988 Y33.4453
G01 X42.6434 Y33.5195
G01 X42.6404 Y33.5240
G01 X42.5931 Y33.6036
G01 X42.5537 Y33.6875
G01 X42.5227 Y33.7748
G01 X42.5015 Y33.8594
G01 X42.4877 Y33.9510
G01 X42.4829 Y34.0435
G01 X42.4829 Y34.0489
G01 X42.4877 Y34.1414
G01 X42.5015 Y34.2330
G01 X42.5227 Y34.3176
G01 X42.5537 Y34.4049
G01 X42.5931 Y34.4888
G01 X42.5956 Y34.4935
G01 X42.6434 Y34.5729
G01 X42.6988 Y34.6471
G01 X42.7574 Y34.7118
G01 X42.8259 Y34.7742
G01 X42.9001 Y34.8296
G01 X42.9046 Y34.8326
G01 X42.9795 Y34.8774
G01 X43.0541 Y34.9130
G01 X43.0541 Y35.3880
G01 X42.8710 Y35.3880
G01 X42.8356 Y35.3528
G01 X42.8084 Y35.3284
G01 X42.7833 Y35.3098
G01 X42.7521 Y35.2908
G01 X42.7192 Y35.2749
G01 X42.6848 Y35.2624
G01 X42.6797 Y35.2608
G01 X42.6441 Y35.2522
G01 X42.6079 Y35.2471
G01 X42.5768 Y35.2455
G01 X42.5402 Y35.2471
G01 X42.5040 Y35.2522
G01 X42.4685 Y35.2608
G01 X42.4633 Y35.2624
G01 X42.4290 Y35.2749
G01 X42.4008 Y35.2883
G01 X42.3961 Y35.2908
G01 X42.3648 Y35.3098
G01 X42.3356 Y35.3318
G01 X42.3106 Y35.3546
G01 X41.8507 Y35.8146
G01 X41.8279 Y35.8396
G01 X41.8059 Y35.8688
G01 X41.7868 Y35.9000
G01 X41.7843 Y35.9048
G01 X41.7689 Y35.9380
G01 X41.7568 Y35.9725
G01 X41.7493 Y36.0027
G01 X41.7482 Y36.0080
G01 X41.7431 Y36.0442
G01 X41.7416 Y36.0808
G01 X41.7436 Y36.1173
G01 X41.7493 Y36.1534
G01 X41.7584 Y36.1888
G01 X41.7710 Y36.2231
G01 X41.7868 Y36.2561
G01 X41.8059 Y36.2873
G01 X41.8279 Y36.3165
G01 X41.8488 Y36.3396
G01 X41.8757 Y36.3644
G01 X41.9049 Y36.3864
G01 X41.9361 Y36.4054
G01 X41.9691 Y36.4213
G01 X42.0034 Y36.4338
G01 X42.0388 Y36.4430
G01 X42.0750 Y36.4486
G01 X42.1142 Y36.4507
G01 X44.5457 Y36.4507
G01 X44.5849 Y36.4486
G01 X44.6210 Y36.4430
G01 X44.6513 Y36.4354
G01 X44.6858 Y36.4233
G01 X44.7189 Y36.4079
G01 X44.7237 Y36.4054
G01 X44.7504 Y36.3894
G01 X44.7800 Y36.3678
G01 X44.8092 Y36.3416
G01 X46.6760 Y34.4748
G01 X49.0852 Y34.4748
G01 X49.1244 Y34.4726
G01 X49.1605 Y34.4670
G01 X49.1908 Y34.4594
G01 X49.1960 Y34.4579
G01 X49.2303 Y34.4453
G01 X49.2585 Y34.4320
G01 X49.2900 Y34.4134
G01 X49.2945 Y34.4104
G01 X49.3237 Y34.3884
G01 X49.3487 Y34.3656
G01 X49.9686 Y33.7458
G01 X51.6062 Y33.7458
G01 X52.7642 Y34.9038
G01 X52.7642 Y36.5414
G01 X51.6062 Y37.6994
G01 X49.9686 Y37.6994
G01 X48.7747 Y36.5056
G01 X48.7455 Y36.4794
G01 X48.7205 Y36.4608
G01 X48.6892 Y36.4418
G01 X48.6563 Y36.4259
G01 X48.6220 Y36.4133
G01 X48.6168 Y36.4118
G01 X48.5865 Y36.4042
G01 X48.5504 Y36.3986
G01 X48.5139 Y36.3965
G01 X47.6236 Y36.3965
G01 X47.5871 Y36.3986
G01 X47.5510 Y36.4042
G01 X47.5156 Y36.4133
G01 X47.4812 Y36.4259
G01 X47.4483 Y36.4418
G01 X47.4171 Y36.4608
G01 X47.3878 Y36.4828
G01 X47.3647 Y36.5037
G01 X45.4960 Y38.3724
G01 X30.9318 Y38.3724
G01 X28.9398 Y36.3804
G01 X28.9148 Y36.3576
G01 X28.8855 Y36.3356
G01 X28.8543 Y36.3165
G01 X28.8214 Y36.3007
G01 X28.7870 Y36.2881
G01 X28.7516 Y36.2790
G01 X28.7155 Y36.2733
G01 X28.6763 Y36.2712
G01 X26.5373 Y36.2712
G01 X26.4981 Y36.2733
G01 X26.4619 Y36.2790
G01 X26.4317 Y36.2865
G01 X26.3972 Y36.2986
G01 X26.3640 Y36.3140
G01 X26.3592 Y36.3165
G01 X26.3280 Y36.3356
G01 X26.2988 Y36.3576
G01 X26.2757 Y36.3785
G01 X26.2510 Y36.4054
G01 X26.2290 Y36.4346
G01 X26.2099 Y36.4658
G01 X26.2074 Y36.4706
G01 X26.1920 Y36.5038
G01 X26.1799 Y36.5383
G01 X26.1724 Y36.5685
G01 X26.1713 Y36.5738
G01 X26.1662 Y36.6100
G01 X26.1646 Y36.6439
G01 X26.1646 Y39.5028
G01 X20.7544 Y44.9130
G01 X10.2066 Y44.9130
G01 X6.5648 Y41.2712
G01 X6.5648 Y39.9500
G01 X6.5632 Y39.9161
G01 X6.5581 Y39.8799
G01 X6.5494 Y39.8444
G01 X6.5479 Y39.8392
G01 X6.5353 Y39.8049
G01 X6.5220 Y39.7767
G01 X6.5034 Y39.7452
G01 X6.4818 Y39.7157
G01 X6.4575 Y39.6884
G01 X5.8028 Y39.0336
G01 X5.8028 Y37.6064
G01 X6.8120 Y36.5972
G01 X8.2392 Y36.5972
G01 X9.2484 Y37.6064
G01 X9.2484 Y39.0336
G01 X8.5956 Y39.6865
G01 X8.5728 Y39.7115
G01 X8.5508 Y39.7407
G01 X8.5318 Y39.7720
G01 X8.5292 Y39.7767
G01 X8.5159 Y39.8049
G01 X8.5033 Y39.8392
G01 X8.4942 Y39.8746
G01 X8.4886 Y39.9108
G01 X8.4864 Y39.9500
G01 X8.4864 Y40.3209
G01 X8.4880 Y40.3547
G01 X8.4931 Y40.3909
G01 X8.5018 Y40.4264
G01 X8.5033 Y40.4316
G01 X8.5159 Y40.4659
G01 X8.5318 Y40.4989
G01 X8.5508 Y40.5301
G01 X8.5728 Y40.5593
G01 X8.5956 Y40.5844
G01 X10.8934 Y42.8822
G01 X10.9185 Y42.9050
G01 X10.9477 Y42.9270
G01 X10.9789 Y42.9460
G01 X10.9837 Y42.9486
G01 X11.0119 Y42.9619
G01 X11.0462 Y42.9745
G01 X11.0816 Y42.9836
G01 X11.1177 Y42.9892
G01 X11.1569 Y42.9914
G01 X19.8041 Y42.9914
G01 X19.8380 Y42.9898
G01 X19.8742 Y42.9847
G01 X19.9097 Y42.9760
G01 X19.9442 Y42.9640
G01 X19.9774 Y42.9486
G01 X19.9821 Y42.9460
G01 X20.0134 Y42.9270
G01 X20.0426 Y42.9050
G01 X20.0676 Y42.8822
G01 X24.1338 Y38.8161
G01 X24.1566 Y38.7910
G01 X24.1786 Y38.7618
G01 X24.1976 Y38.7306
G01 X24.2001 Y38.7258
G01 X24.2135 Y38.6976
G01 X24.2260 Y38.6633
G01 X24.2352 Y38.6279
G01 X24.2408 Y38.5918
G01 X24.2429 Y38.5525
G01 X24.2429 Y36.5811
G01 X24.2408 Y36.5419
G01 X24.2352 Y36.5058
G01 X24.2276 Y36.4756
G01 X24.2260 Y36.4704
G01 X24.2135 Y36.4361
G01 X24.2001 Y36.4079
G01 X24.1816 Y36.3764
G01 X24.1786 Y36.3719
G01 X24.1566 Y36.3427
G01 X24.1338 Y36.3176
G01 X23.5884 Y35.7722
G01 X23.5884 Y34.5554
G01 X24.4488 Y33.6950
G01 X25.6656 Y33.6950
G01 X26.2110 Y34.2404
G01 X26.2361 Y34.2632
G01 X26.2653 Y34.2852
G01 X26.2698 Y34.2882
G01 X26.3013 Y34.3067
G01 X26.3295 Y34.3201
G01 X26.3638 Y34.3326
G01 X26.3690 Y34.3342
G01 X26.3992 Y34.3418
G01 X26.4353 Y34.3474
G01 X26.4745 Y34.3495
G01 X29.2351 Y34.3495
G01 X29.2743 Y34.3474
G01 X29.3104 Y34.3418
G01 X29.3407 Y34.3342
G01 X29.3458 Y34.3326
G01 X29.3802 Y34.3201
G01 X29.4084 Y34.3067
G01 X29.4399 Y34.2882
G01 X29.4694 Y34.2666
G01 X29.4986 Y34.2404
G01 X36.8396 Y26.8994
G01 X36.8658 Y26.8702
G01 X36.8844 Y26.8451
G01 X36.9034 Y26.8139
G01 X36.9193 Y26.7809
G01 X36.9319 Y26.7466
G01 X36.9334 Y26.7414
G01 X36.9421 Y26.7059
G01 X36.9472 Y26.6697
G01 X36.9487 Y26.6386
G01 X36.9488 Y24.6526
G01 X39.3701 Y24.6526
G01 X39.4039 Y24.6510
G01 X39.4402 Y24.6459
G01 X39.4757 Y24.6372
G01 X39.4809 Y24.6357
G01 X39.5152 Y24.6231
G01 X39.5481 Y24.6072
G01 X39.5794 Y24.5882
G01 X39.6086 Y24.5662
G01 X39.6317 Y24.5453
G01 X39.6564 Y24.5184
G01 X39.6784 Y24.4892
G01 X39.6814 Y24.4847
G01 X39.7000 Y24.4532
G01 X39.7133 Y24.4250
G01 X39.7259 Y24.3907
G01 X39.7274 Y24.3855
G01 X39.7350 Y24.3552
G01 X39.7406 Y24.3191
G01 X39.7427 Y24.2826
G01 X39.7427 Y22.8937
G01 X39.7406 Y22.8571
G01 X39.7350 Y22.8210
G01 X39.7259 Y22.7856
G01 X39.7133 Y22.7513
G01 X39.7000 Y22.7231
G01 X39.6814 Y22.6916
G01 X39.6784 Y22.6871
G01 X39.6564 Y22.6579
G01 X39.6317 Y22.6310
G01 X39.6044 Y22.6066
G01 X39.5794 Y22.5881
G01 X39.5481 Y22.5690
G01 X39.5434 Y22.5665
G01 X39.5102 Y22.5511
G01 X39.4757 Y22.5390
G01 X39.4454 Y22.5314
G01 X39.4093 Y22.5258
G01 X39.3728 Y22.5238
G01 X39.3674 Y22.5238
G01 X39.3363 Y22.5253
G01 X39.3001 Y22.5304
G01 X39.2645 Y22.5390
G01 X39.2594 Y22.5406
G01 X39.2250 Y22.5532
G01 X39.1921 Y22.5690
G01 X39.1609 Y22.5881
G01 X39.1317 Y22.6100
G01 X39.1086 Y22.6310
G01 X38.7212 Y23.0182
G01 X37.5044 Y23.0182
G01 X36.6440 Y22.1578
G01 X36.6440 Y20.9410
G01 X37.1379 Y20.4470
G01 X37.1607 Y20.4220
G01 X37.1827 Y20.3928
G01 X37.1857 Y20.3883
G01 X37.2043 Y20.3568
G01 X37.2176 Y20.3286
G01 X37.2302 Y20.2943
G01 X37.2318 Y20.2891
G01 X37.2393 Y20.2589
G01 X37.2450 Y20.2227
G01 X37.2471 Y20.1835
G01 X37.2471 Y17.7042
G01 X38.6901 Y16.2612
G01 X38.7189 Y16.2537
G01 X38.7482 Y16.2432
G01 X38.7814 Y16.2278
G01 X38.7861 Y16.2252
G01 X38.8129 Y16.2092
G01 X38.8424 Y16.1876
G01 X38.8697 Y16.1633
G01 X38.8735 Y16.1595
G01 X38.8944 Y16.1364
G01 X38.9164 Y16.1072
G01 X38.9354 Y16.0759
G01 X38.9380 Y16.0712
G01 X38.9534 Y16.0380
G01 X38.9654 Y16.0035
G01 X38.9730 Y15.9732
G01 X38.9786 Y15.9371
G01 X38.9808 Y15.8979
G01 X38.9808 Y15.4595
G01 X38.9786 Y15.4203
G01 X38.9730 Y15.3842
G01 X38.9654 Y15.3539
G01 X38.9639 Y15.3487
G01 X38.9513 Y15.3144
G01 X38.9354 Y15.2815
G01 X38.9164 Y15.2502
G01 X38.8944 Y15.2210
G01 X38.8735 Y15.1979
G01 X38.8466 Y15.1732
G01 X38.8174 Y15.1512
G01 X38.8129 Y15.1482
G01 X38.7814 Y15.1296
G01 X38.7482 Y15.1142
G01 X38.7137 Y15.1022
G01 X38.6782 Y15.0935
G01 X38.6419 Y15.0884
G01 X38.6081 Y15.0868
G01 X37.8461 Y15.0868
G01 X37.8123 Y15.0884
G01 X37.7760 Y15.0935
G01 X37.7405 Y15.1022
G01 X37.7353 Y15.1037
G01 X37.7010 Y15.1163
G01 X37.6728 Y15.1296
G01 X37.6413 Y15.1482
G01 X37.6368 Y15.1512
G01 X37.6076 Y15.1732
G01 X37.5807 Y15.1979
G01 X37.5598 Y15.2210
G01 X37.5378 Y15.2502
G01 X37.5188 Y15.2815
G01 X37.5162 Y15.2862
G01 X37.5029 Y15.3144
G01 X37.4932 Y15.3408
G00 Z2.0000
G00 X37.4734 Y11.7533
G01 F25.00
G01 Z-0.0187
G01 F45.00
G01 X37.0756 Y11.7533
G01 X37.0756 Y11.3640
G01 X37.0753 Y11.3586
G01 X37.0745 Y11.3533
G01 X37.0732 Y11.3480
G01 X37.0714 Y11.3430
G01 X37.0691 Y11.3381
G01 X37.0663 Y11.3334
G01 X37.0631 Y11.3291
G01 X37.0595 Y11.3251
G01 X37.0555 Y11.3215
G01 X37.0512 Y11.3183
G01 X37.0465 Y11.3155
G01 X37.0416 Y11.3132
G01 X37.0366 Y11.3114
G01 X37.0313 Y11.3101
G01 X37.0260 Y11.3093
G01 X37.0206 Y11.3090
G01 X36.6313 Y11.3090
G01 X36.6313 Y10.9112
G01 X37.4734 Y10.9112
G01 X37.4734 Y11.7533
G00 Z2.0000
G00 X35.8859 Y11.3090
G01 F25.00
G01 Z-0.0187
G01 F45.00
G01 X35.4966 Y11.3090
G01 X35.4912 Y11.3093
G01 X35.4859 Y11.3101
G01 X35.4806 Y11.3114
G01 X35.4756 Y11.3132
G01 X35.4707 Y11.3155
G01 X35.4660 Y11.3183
G01 X35.4617 Y11.3215
G01 X35.4577 Y11.3251
G01 X35.4541 Y11.3291
G01 X35.4509 Y11.3334
G01 X35.4481 Y11.3381
G01 X35.4458 Y11.3430
G01 X35.4440 Y11.3480
G01 X35.4427 Y11.3533
G01 X35.4419 Y11.3586
G01 X35.4416 Y11.3640
G01 X35.4416 Y11.7533
G01 X35.0438 Y11.7533
G01 X35.0438 Y10.9112
G01 X35.8859 Y10.9112
G01 X35.8859 Y11.3090
G00 Z2.0000
G00 X40.3309 Y10.9366
G01 F25.00
G01 Z-0.0187
G01 F45.00
G01 X40.3309 Y11.3344
G01 X39.7386 Y11.3344
G01 X39.7332 Y11.3347
G01 X39.7279 Y11.3355
G01 X39.7226 Y11.3368
G01 X39.7176 Y11.3386
G01 X39.7127 Y11.3409
G01 X39.7080 Y11.3437
G01 X39.7037 Y11.3469
G01 X39.6997 Y11.3505
G01 X39.3947 Y11.6555
G01 X39.3911 Y11.6595
G01 X39.3879 Y11.6638
G01 X39.3851 Y11.6685
G01 X39.3828 Y11.6734
G01 X39.3810 Y11.6784
G01 X39.3797 Y11.6837
G01 X39.3789 Y11.6890
G01 X39.3786 Y11.7787
G01 X38.9808 Y11.7787
G01 X38.9808 Y10.9366
G01 X40.3309 Y10.9366
G00 Z2.0000
G00 X42.4264 Y11.7787
G01 F25.00
G01 Z-0.0187
G01 F45.00
G01 X42.0286 Y11.7787
G01 X42.0283 Y11.6890
G01 X42.0275 Y11.6837
G01 X42.0262 Y11.6784
G01 X42.0244 Y11.6734
G01 X42.0221 Y11.6685
G01 X42.0193 Y11.6638
G01 X42.0161 Y11.6595
G01 X42.0125 Y11.6555
G01 X41.7075 Y11.3505
G01 X41.7035 Y11.3469
G01 X41.6992 Y11.3437
G01 X41.6945 Y11.3409
G01 X41.6896 Y11.3386
G01 X41.6846 Y11.3368
G01 X41.6793 Y11.3355
G01 X41.6740 Y11.3347
G01 X41.6686 Y11.3344
G01 X41.0763 Y11.3344
G01 X41.0763 Y10.9366
G01 X42.4264 Y10.9366
G01 X42.4264 Y11.7787
G00 Z2.0000
G00 X42.0125 Y16.7355
G01 F25.00
G01 Z-0.0187
G01 F45.00
G01 X42.0161 Y16.7395
G01 X42.0193 Y16.7438
G01 X42.0221 Y16.7485
G01 X42.0244 Y16.7534
G01 X42.0262 Y16.7584
G01 X42.0275 Y16.7637
G01 X42.0283 Y16.7690
G01 X42.0286 Y16.7744
G01 X42.0286 Y17.6884
G01 X42.0283 Y17.6938
G01 X42.0275 Y17.6991
G01 X42.0262 Y17.7044
G01 X42.0244 Y17.7094
G01 X42.0221 Y17.7143
G01 X42.0193 Y17.7190
G01 X42.0161 Y17.7233
G01 X42.0125 Y17.7273
G01 X41.7075 Y18.0323
G01 X41.7035 Y18.0359
G01 X41.6992 Y18.0391
G01 X41.6945 Y18.0419
G01 X41.6896 Y18.0442
G01 X41.6846 Y18.0460
G01 X41.6793 Y18.0473
G01 X41.6740 Y18.0481
G01 X41.6686 Y18.0484
G01 X39.7386 Y18.0484
G01 X39.7332 Y18.0481
G01 X39.7279 Y18.0473
G01 X39.7226 Y18.0460
G01 X39.7176 Y18.0442
G01 X39.7127 Y18.0419
G01 X39.7080 Y18.0391
G01 X39.7037 Y18.0359
G01 X39.6997 Y18.0323
G01 X39.4621 Y17.7947
G01 X39.3120 Y17.7947
G01 X38.7712 Y18.3354
G01 X38.7712 Y20.7058
G01 X38.7943 Y20.7233
G01 X38.8682 Y20.7902
G01 X38.8720 Y20.7940
G01 X38.9389 Y20.8679
G01 X38.9424 Y20.8721
G01 X39.0017 Y20.9522
G01 X39.0047 Y20.9567
G01 X39.0560 Y21.0422
G01 X39.0586 Y21.0469
G01 X39.1012 Y21.1371
G01 X39.1032 Y21.1421
G01 X39.1368 Y21.2359
G01 X39.1384 Y21.2411
G01 X39.1626 Y21.3378
G01 X39.1637 Y21.3431
G01 X39.1783 Y21.4417
G01 X39.1788 Y21.4471
G01 X39.1837 Y21.5467
G01 X39.1837 Y21.5521
G01 X39.1788 Y21.6517
G01 X39.1783 Y21.6571
G01 X39.1637 Y21.7557
G01 X39.1626 Y21.7610
G01 X39.1384 Y21.8577
G01 X39.1368 Y21.8629
G01 X39.1032 Y21.9567
G01 X39.1012 Y21.9617
G01 X39.0586 Y22.0519
G01 X39.0560 Y22.0566
G01 X39.0047 Y22.1421
G01 X39.0017 Y22.1466
G01 X38.9424 Y22.2267
G01 X38.9389 Y22.2309
G01 X38.8720 Y22.3048
G01 X38.8682 Y22.3086
G01 X38.7943 Y22.3755
G01 X38.7901 Y22.3790
G01 X38.7100 Y22.4383
G01 X38.7055 Y22.4413
G01 X38.6200 Y22.4926
G01 X38.6153 Y22.4952
G01 X38.5251 Y22.5378
G01 X38.5201 Y22.5398
G01 X38.4263 Y22.5734
G01 X38.4211 Y22.5750
G01 X38.3244 Y22.5992
G01 X38.3191 Y22.6003
G01 X38.2205 Y22.6149
G01 X38.2151 Y22.6154
G01 X38.1155 Y22.6203
G01 X38.1101 Y22.6203
G01 X38.0105 Y22.6154
G01 X38.0051 Y22.6149
G01 X37.9065 Y22.6003
G01 X37.9012 Y22.5992
G01 X37.8045 Y22.5750
G01 X37.7993 Y22.5734
G01 X37.7055 Y22.5398
G01 X37.7005 Y22.5378
G01 X37.6103 Y22.4952
G01 X37.6056 Y22.4926
G01 X37.5201 Y22.4413
G01 X37.5156 Y22.4383
G01 X37.4355 Y22.3790
G01 X37.4313 Y22.3755
G01 X37.3574 Y22.3086
G01 X37.3536 Y22.3048
G01 X37.2867 Y22.2309
G01 X37.2832 Y22.2267
G01 X37.2239 Y22.1466
G01 X37.2209 Y22.1421
G01 X37.1696 Y22.0566
G01 X37.1670 Y22.0519
G01 X37.1244 Y21.9617
G01 X37.1224 Y21.9567
G01 X37.0888 Y21.8629
G01 X37.0872 Y21.8577
G01 X37.0630 Y21.7610
G01 X37.0619 Y21.7557
G01 X37.0473 Y21.6571
G01 X37.0468 Y21.6517
G01 X37.0419 Y21.5521
G01 X37.0419 Y21.5467
G01 X37.0468 Y21.4471
G01 X37.0473 Y21.4417
G01 X37.0619 Y21.3431
G01 X37.0630 Y21.3378
G01 X37.0872 Y21.2411
G01 X37.0888 Y21.2359
G01 X37.1224 Y21.1421
G01 X37.1244 Y21.1371
G01 X37.1670 Y21.0469
G01 X37.1696 Y21.0422
G01 X37.2209 Y20.9567
G01 X37.2239 Y20.9522
G01 X37.2832 Y20.8721
G01 X37.2867 Y20.8679
G01 X37.3536 Y20.7940
G01 X37.3574 Y20.7902
G01 X37.4313 Y20.7233
G01 X37.4355 Y20.7198
G01 X37.5156 Y20.6605
G01 X37.5201 Y20.6575
G01 X37.6056 Y20.6062
G01 X37.6447 Y20.5874
G01 X37.6447 Y18.0994
G01 X37.6472 Y18.0496
G01 X37.6550 Y17.9949
G01 X37.6682 Y17.9412
G01 X37.6698 Y17.9361
G01 X37.6886 Y17.8841
G01 X37.7100 Y17.8390
G01 X37.7381 Y17.7915
G01 X37.7708 Y17.7469
G01 X37.8096 Y17.7039
G01 X38.6804 Y16.8331
G01 X38.7193 Y16.7978
G01 X38.7635 Y16.7646
G01 X38.8108 Y16.7360
G01 X38.8155 Y16.7334
G01 X38.8656 Y16.7100
G01 X38.9177 Y16.6917
G01 X38.9661 Y16.6796
G01 X39.0208 Y16.6712
G01 X39.0787 Y16.6681
G01 X39.4621 Y16.6681
G01 X39.6997 Y16.4305
G01 X39.7037 Y16.4269
G01 X39.7080 Y16.4237
G01 X39.7127 Y16.4209
G01 X39.7176 Y16.4186
G01 X39.7226 Y16.4168
G01 X39.7279 Y16.4155
G01 X39.7332 Y16.4147
G01 X39.7386 Y16.4144
G01 X41.6686 Y16.4144
G01 X41.6740 Y16.4147
G01 X41.6793 Y16.4155
G01 X41.6846 Y16.4168
G01 X41.6896 Y16.4186
G01 X41.6945 Y16.4209
G01 X41.6992 Y16.4237
G01 X41.7035 Y16.4269
G01 X41.7075 Y16.4305
G01 X42.0125 Y16.7355
G00 Z2.0000
G00 X49.6097 Y16.7127
G01 F25.00
G01 Z-0.0187
G01 F45.00
G01 X49.6583 Y16.7360
G01 X49.7055 Y16.7646
G01 X49.7498 Y16.7978
G01 X49.7887 Y16.8331
G01 X50.9915 Y18.0361
G01 X51.0250 Y18.0730
G01 X51.0582 Y18.1173
G01 X51.0612 Y18.1218
G01 X51.0894 Y18.1693
G01 X51.1107 Y18.2144
G01 X51.1296 Y18.2663
G01 X51.1311 Y18.2715
G01 X51.1443 Y18.3252
G01 X51.1521 Y18.3799
G01 X51.1547 Y18.4324
G01 X51.1548 Y25.0093
G01 X51.4182 Y25.0093
G01 X51.4182 Y24.4196
G01 X51.4185 Y24.4142
G01 X51.4193 Y24.4089
G01 X51.4206 Y24.4036
G01 X51.4224 Y24.3986
G01 X51.4247 Y24.3937
G01 X51.4275 Y24.3890
G01 X51.4307 Y24.3847
G01 X51.4343 Y24.3807
G01 X51.4383 Y24.3771
G01 X51.4426 Y24.3739
G01 X51.4473 Y24.3711
G01 X51.4522 Y24.3688
G01 X51.4572 Y24.3670
G01 X51.4625 Y24.3657
G01 X51.4678 Y24.3649
G01 X51.4732 Y24.3646
G01 X53.5052 Y24.3646
G01 X53.5106 Y24.3649
G01 X53.5159 Y24.3657
G01 X53.5212 Y24.3670
G01 X53.5262 Y24.3688
G01 X53.5311 Y24.3711
G01 X53.5358 Y24.3739
G01 X53.5401 Y24.3771
G01 X53.5441 Y24.3807
G01 X53.5477 Y24.3847
G01 X53.5509 Y24.3890
G01 X53.5537 Y24.3937
G01 X53.5560 Y24.3986
G01 X53.5578 Y24.4036
G01 X53.5591 Y24.4089
G01 X53.5599 Y24.4142
G01 X53.5602 Y24.4196
G01 X53.5602 Y26.4516
G01 X53.5599 Y26.4570
G01 X53.5591 Y26.4623
G01 X53.5578 Y26.4676
G01 X53.5560 Y26.4726
G01 X53.5537 Y26.4775
G01 X53.5509 Y26.4822
G01 X53.5477 Y26.4865
G01 X53.5441 Y26.4905
G01 X53.5401 Y26.4941
G01 X53.5358 Y26.4973
G01 X53.5311 Y26.5001
G01 X53.5262 Y26.5024
G01 X53.5212 Y26.5042
G01 X53.5159 Y26.5055
G01 X53.5106 Y26.5063
G01 X53.5052 Y26.5066
G01 X53.0525 Y26.5066
G01 X53.0525 Y26.9046
G01 X53.5052 Y26.9046
G01 X53.5106 Y26.9049
G01 X53.5159 Y26.9057
G01 X53.5212 Y26.9070
G01 X53.5262 Y26.9088
G01 X53.5311 Y26.9111
G01 X53.5358 Y26.9139
G01 X53.5401 Y26.9171
G01 X53.5441 Y26.9207
G01 X53.5477 Y26.9247
G01 X53.5509 Y26.9290
G01 X53.5537 Y26.9337
G01 X53.5560 Y26.9386
G01 X53.5578 Y26.9436
G01 X53.5591 Y26.9489
G01 X53.5599 Y26.9542
G01 X53.5602 Y26.9596
G01 X53.5602 Y28.9916
G01 X53.5599 Y28.9970
G01 X53.5591 Y29.0023
G01 X53.5578 Y29.0076
G01 X53.5560 Y29.0126
G01 X53.5537 Y29.0175
G01 X53.5509 Y29.0222
G01 X53.5477 Y29.0265
G01 X53.5441 Y29.0305
G01 X53.5401 Y29.0341
G01 X53.5358 Y29.0373
G01 X53.5311 Y29.0401
G01 X53.5262 Y29.0424
G01 X53.5212 Y29.0442
G01 X53.5159 Y29.0455
G01 X53.5106 Y29.0463
G01 X53.5052 Y29.0466
G01 X51.4732 Y29.0466
G01 X51.4678 Y29.0463
G01 X51.4625 Y29.0455
G01 X51.4572 Y29.0442
G01 X51.4522 Y29.0424
G01 X51.4473 Y29.0401
G01 X51.4426 Y29.0373
G01 X51.4383 Y29.0341
G01 X51.4343 Y29.0305
G01 X51.4307 Y29.0265
G01 X51.4275 Y29.0222
G01 X51.4247 Y29.0175
G01 X51.4224 Y29.0126
G01 X51.4206 Y29.0076
G01 X51.4193 Y29.0023
G01 X51.4185 Y28.9970
G01 X51.4182 Y28.9916
G01 X51.4182 Y26.9596
G01 X51.4185 Y26.9542
G01 X51.4193 Y26.9489
G01 X51.4206 Y26.9436
G01 X51.4224 Y26.9386
G01 X51.4247 Y26.9337
G01 X51.4275 Y26.9290
G01 X51.4307 Y26.9247
G01 X51.4343 Y26.9207
G01 X51.4383 Y26.9171
G01 X51.4426 Y26.9139
G01 X51.4473 Y26.9111
G01 X51.4522 Y26.9088
G01 X51.4572 Y26.9070
G01 X51.4625 Y26.9057
G01 X51.4678 Y26.9049
G01 X51.4732 Y26.9046
G01 X51.9259 Y26.9046
G01 X51.9259 Y26.5066
G01 X51.4732 Y26.5066
G01 X51.4678 Y26.5063
G01 X51.4625 Y26.5055
G01 X51.4572 Y26.5042
G01 X51.4522 Y26.5024
G01 X51.4473 Y26.5001
G01 X51.4426 Y26.4973
G01 X51.4383 Y26.4941
G01 X51.4343 Y26.4905
G01 X51.4307 Y26.4865
G01 X51.4275 Y26.4822
G01 X51.4247 Y26.4775
G01 X51.4224 Y26.4726
G01 X51.4206 Y26.4676
G01 X51.4193 Y26.4623
G01 X51.4185 Y26.4570
G01 X51.4182 Y26.4516
G01 X51.4182 Y26.1358
G01 X50.5490 Y26.1357
G01 X50.4991 Y26.1333
G01 X50.4444 Y26.1254
G01 X50.3908 Y26.1122
G01 X50.3386 Y26.0939
G01 X50.2886 Y26.0705
G01 X50.2410 Y26.0423
G01 X50.1965 Y26.0096
G01 X50.1553 Y25.9727
G01 X50.1180 Y25.9319
G01 X50.1146 Y25.9277
G01 X50.0819 Y25.8832
G01 X50.0537 Y25.8356
G01 X50.0303 Y25.7855
G01 X50.0119 Y25.7334
G01 X49.9998 Y25.6850
G01 X49.9914 Y25.6304
G01 X49.9885 Y25.5752
G01 X49.9909 Y25.5200
G01 X49.9988 Y25.4653
G01 X50.0119 Y25.4116
G01 X50.0283 Y25.3650
G01 X50.0282 Y18.6657
G01 X49.3611 Y17.9987
G01 X49.3275 Y18.0323
G01 X49.3235 Y18.0359
G01 X49.3192 Y18.0391
G01 X49.3145 Y18.0419
G01 X49.3096 Y18.0442
G01 X49.3046 Y18.0460
G01 X49.2993 Y18.0473
G01 X49.2940 Y18.0481
G01 X49.2886 Y18.0484
G01 X47.3586 Y18.0484
G01 X47.3532 Y18.0481
G01 X47.3479 Y18.0473
G01 X47.3426 Y18.0460
G01 X47.3376 Y18.0442
G01 X47.3327 Y18.0419
G01 X47.3280 Y18.0391
G01 X47.3237 Y18.0359
G01 X47.3197 Y18.0323
G01 X47.0821 Y17.7947
G01 X45.8063 Y17.7946
G01 X45.7511 Y17.7916
G01 X45.6965 Y17.7832
G01 X45.6429 Y17.7696
G01 X45.5910 Y17.7507
G01 X45.5411 Y17.7268
G01 X45.4939 Y17.6982
G01 X45.4496 Y17.6650
G01 X45.4107 Y17.6297
G01 X42.8833 Y15.1023
G01 X42.0286 Y15.1023
G01 X42.0286 Y15.1484
G01 X42.0283 Y15.1538
G01 X42.0275 Y15.1591
G01 X42.0262 Y15.1644
G01 X42.0244 Y15.1694
G01 X42.0221 Y15.1743
G01 X42.0193 Y15.1790
G01 X42.0161 Y15.1833
G01 X42.0125 Y15.1873
G01 X41.7075 Y15.4923
G01 X41.7035 Y15.4959
G01 X41.6992 Y15.4991
G01 X41.6945 Y15.5019
G01 X41.6896 Y15.5042
G01 X41.6846 Y15.5060
G01 X41.6793 Y15.5073
G01 X41.6740 Y15.5081
G01 X41.6686 Y15.5084
G01 X39.7386 Y15.5084
G01 X39.7332 Y15.5081
G01 X39.7279 Y15.5073
G01 X39.7226 Y15.5060
G01 X39.7176 Y15.5042
G01 X39.7127 Y15.5019
G01 X39.7080 Y15.4991
G01 X39.7037 Y15.4959
G01 X39.6997 Y15.4923
G01 X39.3947 Y15.1873
G01 X39.3911 Y15.1833
G01 X39.3879 Y15.1790
G01 X39.3851 Y15.1743
G01 X39.3828 Y15.1694
G01 X39.3810 Y15.1644
G01 X39.3797 Y15.1591
G01 X39.3789 Y15.1538
G01 X39.3786 Y15.1484
G01 X39.3786 Y14.6893
G01 X37.0756 Y14.6893
G01 X37.0756 Y14.8880
G01 X37.0753 Y14.8934
G01 X37.0745 Y14.8987
G01 X37.0732 Y14.9040
G01 X37.0714 Y14.9090
G01 X37.0691 Y14.9139
G01 X37.0663 Y14.9186
G01 X37.0631 Y14.9229
G01 X37.0595 Y14.9269
G01 X37.0555 Y14.9305
G01 X37.0512 Y14.9337
G01 X37.0465 Y14.9365
G01 X37.0416 Y14.9388
G01 X37.0366 Y14.9406
G01 X37.0313 Y14.9419
G01 X37.0260 Y14.9427
G01 X37.0206 Y14.9430
G01 X35.4966 Y14.9430
G01 X35.4912 Y14.9427
G01 X35.4859 Y14.9419
G01 X35.4806 Y14.9406
G01 X35.4756 Y14.9388
G01 X35.4707 Y14.9365
G01 X35.4660 Y14.9337
G01 X35.4617 Y14.9305
G01 X35.4577 Y14.9269
G01 X35.4541 Y14.9229
G01 X35.4509 Y14.9186
G01 X35.4481 Y14.9139
G01 X35.4458 Y14.9090
G01 X35.4440 Y14.9040
G01 X35.4427 Y14.8987
G01 X35.4419 Y14.8934
G01 X35.4416 Y14.8880
G01 X35.4416 Y13.3640
G01 X35.4419 Y13.3586
G01 X35.4427 Y13.3533
G01 X35.4440 Y13.3480
G01 X35.4458 Y13.3430
G01 X35.4481 Y13.3381
G01 X35.4509 Y13.3334
G01 X35.4541 Y13.3291
G01 X35.4577 Y13.3251
G01 X35.4617 Y13.3215
G01 X35.4660 Y13.3183
G01 X35.4707 Y13.3155
G01 X35.4756 Y13.3132
G01 X35.4806 Y13.3114
G01 X35.4859 Y13.3101
G01 X35.4912 Y13.3093
G01 X35.4966 Y13.3090
G01 X37.0206 Y13.3090
G01 X37.0260 Y13.3093
G01 X37.0313 Y13.3101
G01 X37.0366 Y13.3114
G01 X37.0416 Y13.3132
G01 X37.0465 Y13.3155
G01 X37.0512 Y13.3183
G01 X37.0555 Y13.3215
G01 X37.0595 Y13.3251
G01 X37.0631 Y13.3291
G01 X37.0663 Y13.3334
G01 X37.0691 Y13.3381
G01 X37.0714 Y13.3430
G01 X37.0732 Y13.3480
G01 X37.0745 Y13.3533
G01 X37.0753 Y13.3586
G01 X37.0756 Y13.3640
G01 X37.0756 Y13.5627
G01 X39.9195 Y13.5627
G01 X39.9720 Y13.5653
G01 X40.0267 Y13.5731
G01 X40.0320 Y13.5742
G01 X40.0856 Y13.5878
G01 X40.1375 Y13.6067
G01 X40.1826 Y13.6280
G01 X40.2302 Y13.6562
G01 X40.2747 Y13.6889
G01 X40.3158 Y13.7259
G01 X40.4645 Y13.8744
G01 X41.6686 Y13.8744
G01 X41.6740 Y13.8747
G01 X41.6793 Y13.8755
G01 X41.6846 Y13.8768
G01 X41.6896 Y13.8786
G01 X41.6945 Y13.8809
G01 X41.6992 Y13.8837
G01 X41.7035 Y13.8869
G01 X41.7075 Y13.8905
G01 X41.7927 Y13.9757
G01 X43.1166 Y13.9757
G01 X43.1745 Y13.9788
G01 X43.2291 Y13.9872
G01 X43.2775 Y13.9993
G01 X43.3296 Y14.0176
G01 X43.3797 Y14.0410
G01 X43.3845 Y14.0436
G01 X43.4317 Y14.0722
G01 X43.4718 Y14.1019
G01 X43.5149 Y14.1407
G01 X46.0423 Y16.6681
G01 X47.0821 Y16.6681
G01 X47.3197 Y16.4305
G01 X47.3237 Y16.4269
G01 X47.3280 Y16.4237
G01 X47.3327 Y16.4209
G01 X47.3376 Y16.4186
G01 X47.3426 Y16.4168
G01 X47.3479 Y16.4155
G01 X47.3532 Y16.4147
G01 X47.3586 Y16.4144
G01 X49.2886 Y16.4144
G01 X49.2940 Y16.4147
G01 X49.2993 Y16.4155
G01 X49.3046 Y16.4168
G01 X49.3096 Y16.4186
G01 X49.3145 Y16.4209
G01 X49.3192 Y16.4237
G01 X49.3235 Y16.4269
G01 X49.3275 Y16.4305
G01 X49.6097 Y16.7127
G00 Z2.0000
G00 X49.6325 Y19.2755
G01 F25.00
G01 Z-0.0187
G01 F45.00
G01 X49.6361 Y19.2795
G01 X49.6393 Y19.2838
G01 X49.6421 Y19.2885
G01 X49.6444 Y19.2934
G01 X49.6462 Y19.2984
G01 X49.6475 Y19.3037
G01 X49.6483 Y19.3090
G01 X49.6486 Y19.3144
G01 X49.6486 Y20.2284
G01 X49.6483 Y20.2338
G01 X49.6475 Y20.2391
G01 X49.6462 Y20.2444
G01 X49.6444 Y20.2494
G01 X49.6421 Y20.2543
G01 X49.6393 Y20.2590
G01 X49.6361 Y20.2633
G01 X49.6325 Y20.2673
G01 X49.3275 Y20.5723
G01 X49.3235 Y20.5759
G01 X49.3192 Y20.5791
G01 X49.3145 Y20.5819
G01 X49.3096 Y20.5842
G01 X49.3046 Y20.5860
G01 X49.2993 Y20.5873
G01 X49.2940 Y20.5881
G01 X49.2886 Y20.5884
G01 X48.8869 Y20.5884
G01 X48.8869 Y28.4619
G01 X48.8843 Y28.5144
G01 X48.8765 Y28.5692
G01 X48.8633 Y28.6228
G01 X48.8618 Y28.6280
G01 X48.8429 Y28.6799
G01 X48.8216 Y28.7250
G01 X48.7934 Y28.7726
G01 X48.7607 Y28.8171
G01 X48.7237 Y28.8583
G01 X48.6830 Y28.8956
G01 X48.6788 Y28.8990
G01 X48.6342 Y28.9317
G01 X48.5867 Y28.9599
G01 X48.5416 Y28.9812
G01 X48.4897 Y29.0001
G01 X48.4361 Y29.0138
G01 X48.3815 Y29.0221
G01 X48.3263 Y29.0251
G01 X42.9906 Y29.0252
G01 X38.9101 Y33.1057
G01 X38.9101 Y33.2900
G01 X38.9477 Y33.3182
G01 X39.0124 Y33.3768
G01 X39.0748 Y33.4453
G01 X39.1302 Y33.5195
G01 X39.1780 Y33.5989
G01 X39.2178 Y33.6825
G01 X39.2493 Y33.7696
G01 X39.2509 Y33.7748
G01 X39.2731 Y33.8647
G01 X39.2865 Y33.9564
G01 X39.2907 Y34.0489
G01 X39.2859 Y34.1414
G01 X39.2721 Y34.2330
G01 X39.2493 Y34.3228
G01 X39.2178 Y34.4099
G01 X39.1805 Y34.4888
G01 X39.1332 Y34.5684
G01 X39.0782 Y34.6429
G01 X39.0162 Y34.7118
G01 X38.9477 Y34.7742
G01 X38.8735 Y34.8296
G01 X38.7941 Y34.8774
G01 X38.7105 Y34.9172
G01 X38.6234 Y34.9487
G01 X38.6182 Y34.9503
G01 X38.5283 Y34.9725
G01 X38.4366 Y34.9859
G01 X38.3441 Y34.9901
G01 X38.2516 Y34.9853
G01 X38.1600 Y34.9715
G01 X38.0754 Y34.9503
G01 X37.9881 Y34.9193
G01 X37.9042 Y34.8799
G01 X37.8246 Y34.8326
G01 X37.7501 Y34.7776
G01 X37.6812 Y34.7156
G01 X37.6774 Y34.7118
G01 X37.6154 Y34.6429
G01 X37.5604 Y34.5684
G01 X37.5131 Y34.4888
G01 X37.4758 Y34.4099
G01 X37.4443 Y34.3228
G01 X37.4427 Y34.3176
G01 X37.4205 Y34.2277
G01 X37.4071 Y34.1360
G01 X37.4029 Y34.0489
G01 X37.4071 Y33.9564
G01 X37.4205 Y33.8647
G01 X37.4215 Y33.8594
G01 X37.4443 Y33.7696
G01 X37.4758 Y33.6825
G01 X37.5156 Y33.5989
G01 X37.5634 Y33.5195
G01 X37.6188 Y33.4453
G01 X37.6812 Y33.3768
G01 X37.7459 Y33.3182
G01 X37.7835 Y33.2900
G01 X37.7835 Y32.8724
G01 X37.7866 Y32.8145
G01 X37.7950 Y32.7599
G01 X37.8071 Y32.7115
G01 X37.8254 Y32.6594
G01 X37.8488 Y32.6093
G01 X37.8514 Y32.6045
G01 X37.8800 Y32.5573
G01 X37.9132 Y32.5130
G01 X37.9485 Y32.4741
G01 X42.3590 Y28.0636
G01 X42.3979 Y28.0283
G01 X42.4421 Y27.9952
G01 X42.4894 Y27.9665
G01 X42.4942 Y27.9640
G01 X42.5393 Y27.9426
G01 X42.5912 Y27.9238
G01 X42.5964 Y27.9222
G01 X42.6500 Y27.9090
G01 X42.7048 Y27.9012
G01 X42.7573 Y27.8987
G01 X47.7603 Y27.8987
G01 X47.7603 Y20.5884
G01 X47.3586 Y20.5884
G01 X47.3532 Y20.5881
G01 X47.3479 Y20.5873
G01 X47.3426 Y20.5860
G01 X47.3376 Y20.5842
G01 X47.3327 Y20.5819
G01 X47.3280 Y20.5791
G01 X47.3237 Y20.5759
G01 X47.3197 Y20.5723
G01 X47.0147 Y20.2673
G01 X47.0111 Y20.2633
G01 X47.0079 Y20.2590
G01 X47.0051 Y20.2543
G01 X47.0028 Y20.2494
G01 X47.0010 Y20.2444
G01 X46.9997 Y20.2391
G01 X46.9989 Y20.2338
G01 X46.9986 Y20.2284
G01 X46.9986 Y19.3144
G01 X46.9989 Y19.3090
G01 X46.9997 Y19.3037
G01 X47.0010 Y19.2984
G01 X47.0028 Y19.2934
G01 X47.0051 Y19.2885
G01 X47.0079 Y19.2838
G01 X47.0111 Y19.2795
G01 X47.0147 Y19.2755
G01 X47.3197 Y18.9705
G01 X47.3237 Y18.9669
G01 X47.3280 Y18.9637
G01 X47.3327 Y18.9609
G01 X47.3376 Y18.9586
G01 X47.3426 Y18.9568
G01 X47.3479 Y18.9555
G01 X47.3532 Y18.9547
G01 X47.3586 Y18.9544
G01 X49.2886 Y18.9544
G01 X49.2940 Y18.9547
G01 X49.2993 Y18.9555
G01 X49.3046 Y18.9568
G01 X49.3096 Y18.9586
G01 X49.3145 Y18.9609
G01 X49.3192 Y18.9637
G01 X49.3235 Y18.9669
G01 X49.3275 Y18.9705
G01 X49.6325 Y19.2755
G00 Z2.0000
G00 X53.5052 Y21.8246
G01 F25.00
G01 Z-0.0187
G01 F45.00
G01 X53.5106 Y21.8249
G01 X53.5159 Y21.8257
G01 X53.5212 Y21.8270
G01 X53.5262 Y21.8288
G01 X53.5311 Y21.8311
G01 X53.5358 Y21.8339
G01 X53.5401 Y21.8371
G01 X53.5441 Y21.8407
G01 X53.5477 Y21.8447
G01 X53.5509 Y21.8490
G01 X53.5537 Y21.8537
G01 X53.5560 Y21.8586
G01 X53.5578 Y21.8636
G01 X53.5591 Y21.8689
G01 X53.5599 Y21.8742
G01 X53.5602 Y21.8796
G01 X53.5602 Y23.9116
G01 X53.5599 Y23.9170
G01 X53.5591 Y23.9223
G01 X53.5578 Y23.9276
G01 X53.5560 Y23.9326
G01 X53.5537 Y23.9375
G01 X53.5509 Y23.9422
G01 X53.5477 Y23.9465
G01 X53.5441 Y23.9505
G01 X53.5401 Y23.9541
G01 X53.5358 Y23.9573
G01 X53.5311 Y23.9601
G01 X53.5262 Y23.9624
G01 X53.5212 Y23.9642
G01 X53.5159 Y23.9655
G01 X53.5106 Y23.9663
G01 X53.5052 Y23.9666
G01 X51.4732 Y23.9666
G01 X51.4678 Y23.9663
G01 X51.4625 Y23.9655
G01 X51.4572 Y23.9642
G01 X51.4522 Y23.9624
G01 X51.4473 Y23.9601
G01 X51.4426 Y23.9573
G01 X51.4383 Y23.9541
G01 X51.4343 Y23.9505
G01 X51.4307 Y23.9465
G01 X51.4275 Y23.9422
G01 X51.4247 Y23.9375
G01 X51.4224 Y23.9326
G01 X51.4206 Y23.9276
G01 X51.4193 Y23.9223
G01 X51.4185 Y23.9170
G01 X51.4182 Y23.9116
G01 X51.4182 Y21.8796
G01 X51.4185 Y21.8742
G01 X51.4193 Y21.8689
G01 X51.4206 Y21.8636
G01 X51.4224 Y21.8586
G01 X51.4247 Y21.8537
G01 X51.4275 Y21.8490
G01 X51.4307 Y21.8447
G01 X51.4343 Y21.8407
G01 X51.4383 Y21.8371
G01 X51.4426 Y21.8339
G01 X51.4473 Y21.8311
G01 X51.4522 Y21.8288
G01 X51.4572 Y21.8270
G01 X51.4625 Y21.8257
G01 X51.4678 Y21.8249
G01 X51.4732 Y21.8246
G01 X52.0275 Y21.8246
G01 X52.0275 Y19.7666
G01 X51.9936 Y19.7459
G01 X51.9135 Y19.6866
G01 X51.9093 Y19.6831
G01 X51.8354 Y19.6162
G01 X51.8316 Y19.6124
G01 X51.7647 Y19.5385
G01 X51.7612 Y19.5343
G01 X51.7019 Y19.4542
G01 X51.6989 Y19.4497
G01 X51.6476 Y19.3642
G01 X51.6450 Y19.3595
G01 X51.6024 Y19.2693
G01 X51.6004 Y19.2643
G01 X51.5668 Y19.1705
G01 X51.5652 Y19.1653
G01 X51.5410 Y19.0686
G01 X51.5399 Y19.0633
G01 X51.5253 Y18.9647
G01 X51.5248 Y18.9593
G01 X51.5199 Y18.8597
G01 X51.5199 Y18.8543
G01 X51.5248 Y18.7547
G01 X51.5253 Y18.7493
G01 X51.5399 Y18.6507
G01 X51.5410 Y18.6454
G01 X51.5652 Y18.5487
G01 X51.5668 Y18.5435
G01 X51.6004 Y18.4497
G01 X51.6024 Y18.4447
G01 X51.6450 Y18.3545
G01 X51.6476 Y18.3498
G01 X51.6989 Y18.2643
G01 X51.7019 Y18.2598
G01 X51.7612 Y18.1797
G01 X51.7647 Y18.1755
G01 X51.8316 Y18.1016
G01 X51.8354 Y18.0978
G01 X51.9093 Y18.0309
G01 X51.9135 Y18.0274
G01 X51.9936 Y17.9681
G01 X51.9981 Y17.9651
G01 X52.0836 Y17.9138
G01 X52.1401 Y17.8868
G01 X52.1401 Y17.5198
G01 X49.8749 Y15.2547
G01 X49.5651 Y15.2547
G01 X49.3275 Y15.4923
G01 X49.3235 Y15.4959
G01 X49.3192 Y15.4991
G01 X49.3145 Y15.5019
G01 X49.3096 Y15.5042
G01 X49.3046 Y15.5060
G01 X49.2993 Y15.5073
G01 X49.2940 Y15.5081
G01 X49.2886 Y15.5084
G01 X47.3586 Y15.5084
G01 X47.3532 Y15.5081
G01 X47.3479 Y15.5073
G01 X47.3426 Y15.5060
G01 X47.3376 Y15.5042
G01 X47.3327 Y15.5019
G01 X47.3280 Y15.4991
G01 X47.3237 Y15.4959
G01 X47.3197 Y15.4923
G01 X47.0147 Y15.1873
G01 X47.0111 Y15.1833
G01 X47.0079 Y15.1790
G01 X47.0051 Y15.1743
G01 X47.0028 Y15.1694
G01 X47.0010 Y15.1644
G01 X46.9997 Y15.1591
G01 X46.9989 Y15.1538
G01 X46.9986 Y15.1484
G01 X46.9986 Y14.2344
G01 X46.9989 Y14.2290
G01 X46.9997 Y14.2237
G01 X47.0010 Y14.2184
G01 X47.0028 Y14.2134
G01 X47.0051 Y14.2085
G01 X47.0079 Y14.2038
G01 X47.0111 Y14.1995
G01 X47.0147 Y14.1955
G01 X47.3197 Y13.8905
G01 X47.3237 Y13.8869
G01 X47.3280 Y13.8837
G01 X47.3327 Y13.8809
G01 X47.3376 Y13.8786
G01 X47.3426 Y13.8768
G01 X47.3479 Y13.8755
G01 X47.3532 Y13.8747
G01 X47.3586 Y13.8744
G01 X49.2886 Y13.8744
G01 X49.2940 Y13.8747
G01 X49.2993 Y13.8755
G01 X49.3046 Y13.8768
G01 X49.3096 Y13.8786
G01 X49.3145 Y13.8809
G01 X49.3192 Y13.8837
G01 X49.3235 Y13.8869
G01 X49.3275 Y13.8905
G01 X49.5651 Y14.1281
G01 X50.1082 Y14.1281
G01 X50.1607 Y14.1307
G01 X50.2154 Y14.1385
G01 X50.2691 Y14.1517
G01 X50.3212 Y14.1700
G01 X50.3713 Y14.1934
G01 X50.3761 Y14.1960
G01 X50.4233 Y14.2246
G01 X50.4676 Y14.2578
G01 X50.5065 Y14.2931
G01 X53.1016 Y16.8883
G01 X53.1404 Y16.9313
G01 X53.1731 Y16.9759
G01 X53.1988 Y17.0187
G01 X53.2226 Y17.0685
G01 X53.2415 Y17.1205
G01 X53.2431 Y17.1256
G01 X53.2552 Y17.1740
G01 X53.2636 Y17.2287
G01 X53.2666 Y17.2865
G01 X53.2666 Y18.0263
G01 X53.2723 Y18.0309
G01 X53.3462 Y18.0978
G01 X53.3500 Y18.1016
G01 X53.4169 Y18.1755
G01 X53.4204 Y18.1797
G01 X53.4797 Y18.2598
G01 X53.4827 Y18.2643
G01 X53.5340 Y18.3498
G01 X53.5366 Y18.3545
G01 X53.5792 Y18.4447
G01 X53.5812 Y18.4497
G01 X53.6148 Y18.5435
G01 X53.6164 Y18.5487
G01 X53.6406 Y18.6454
G01 X53.6417 Y18.6507
G01 X53.6563 Y18.7493
G01 X53.6568 Y18.7547
G01 X53.6617 Y18.8543
G01 X53.6617 Y18.8597
G01 X53.6568 Y18.9593
G01 X53.6563 Y18.9647
G01 X53.6417 Y19.0633
G01 X53.6406 Y19.0686
G01 X53.6164 Y19.1653
G01 X53.6148 Y19.1705
G01 X53.5812 Y19.2643
G01 X53.5792 Y19.2693
G01 X53.5366 Y19.3595
G01 X53.5340 Y19.3642
G01 X53.4827 Y19.4497
G01 X53.4797 Y19.4542
G01 X53.4204 Y19.5343
G01 X53.4169 Y19.5385
G01 X53.3500 Y19.6124
G01 X53.3462 Y19.6162
G01 X53.2723 Y19.6831
G01 X53.2681 Y19.6866
G01 X53.1880 Y19.7459
G01 X53.1541 Y19.7666
G01 X53.1541 Y21.8246
G01 X53.5052 Y21.8246
G00 Z2.0000
G00 X55.8085 Y14.5395
G01 F25.00
G01 Z-0.0187
G01 F45.00
G01 X55.8438 Y14.5784
G01 X55.8770 Y14.6226
G01 X55.9056 Y14.6699
G01 X55.9295 Y14.7197
G01 X55.9484 Y14.7717
G01 X55.9620 Y14.8252
G01 X55.9704 Y14.8799
G01 X55.9735 Y14.9377
G01 X55.9735 Y29.3980
G01 X55.9709 Y29.4505
G01 X55.9631 Y29.5052
G01 X55.9499 Y29.5589
G01 X55.9316 Y29.6110
G01 X55.9082 Y29.6611
G01 X55.9056 Y29.6659
G01 X55.8770 Y29.7131
G01 X55.8438 Y29.7574
G01 X55.8085 Y29.7963
G01 X53.8287 Y31.7759
G01 X53.7918 Y31.8094
G01 X53.7475 Y31.8426
G01 X53.7003 Y31.8712
G01 X53.6955 Y31.8738
G01 X53.6504 Y31.8951
G01 X53.5985 Y31.9140
G01 X53.5933 Y31.9155
G01 X53.5396 Y31.9287
G01 X53.4849 Y31.9365
G01 X53.4324 Y31.9391
G01 X42.4643 Y31.9391
G01 X41.9091 Y32.4943
G01 X41.9091 Y34.9606
G01 X41.9065 Y35.0131
G01 X41.8987 Y35.0678
G01 X41.8855 Y35.1215
G01 X41.8672 Y35.1736
G01 X41.8438 Y35.2237
G01 X41.8156 Y35.2712
G01 X41.7829 Y35.3158
G01 X41.7441 Y35.3589
G01 X40.9538 Y36.1492
G01 X40.9149 Y36.1845
G01 X40.8706 Y36.2177
G01 X40.8234 Y36.2463
G01 X40.8186 Y36.2489
G01 X40.7735 Y36.2702
G01 X40.7216 Y36.2891
G01 X40.7164 Y36.2906
G01 X40.6627 Y36.3038
G01 X40.6080 Y36.3117
G01 X40.5555 Y36.3142
G01 X36.7769 Y36.3142
G01 X36.7244 Y36.3117
G01 X36.6697 Y36.3038
G01 X36.6160 Y36.2906
G01 X36.5639 Y36.2723
G01 X36.5138 Y36.2489
G01 X36.5091 Y36.2463
G01 X36.4618 Y36.2177
G01 X36.4176 Y36.1845
G01 X36.3787 Y36.1492
G01 X35.5375 Y35.3081
G01 X35.5022 Y35.2692
G01 X35.4988 Y35.2650
G01 X35.4661 Y35.2204
G01 X35.4379 Y35.1729
G01 X35.4165 Y35.1278
G01 X35.3977 Y35.0759
G01 X35.3840 Y35.0223
G01 X35.3756 Y34.9677
G01 X35.3726 Y34.9098
G01 X35.3726 Y32.2862
G01 X35.3756 Y32.2283
G01 X35.3840 Y32.1737
G01 X35.3977 Y32.1201
G01 X35.4165 Y32.0682
G01 X35.4404 Y32.0183
G01 X35.4691 Y31.9710
G01 X35.5022 Y31.9268
G01 X35.5375 Y31.8879
G01 X40.2330 Y27.1924
G01 X39.9416 Y27.1924
G01 X39.9362 Y27.1921
G01 X39.9309 Y27.1913
G01 X39.9256 Y27.1900
G01 X39.9206 Y27.1882
G01 X39.9157 Y27.1859
G01 X39.9110 Y27.1831
G01 X39.9067 Y27.1799
G01 X39.9027 Y27.1763
G01 X39.8991 Y27.1723
G01 X39.8959 Y27.1680
G01 X39.8931 Y27.1633
G01 X39.8908 Y27.1584
G01 X39.8890 Y27.1534
G01 X39.8877 Y27.1481
G01 X39.8869 Y27.1428
G01 X39.8866 Y27.1374
G01 X39.8866 Y25.1054
G01 X39.8869 Y25.1000
G01 X39.8877 Y25.0947
G01 X39.8890 Y25.0894
G01 X39.8908 Y25.0844
G01 X39.8931 Y25.0795
G01 X39.8959 Y25.0748
G01 X39.8991 Y25.0705
G01 X39.9027 Y25.0665
G01 X39.9067 Y25.0629
G01 X39.9110 Y25.0597
G01 X39.9157 Y25.0569
G01 X39.9206 Y25.0546
G01 X39.9256 Y25.0528
G01 X39.9309 Y25.0515
G01 X39.9362 Y25.0507
G01 X39.9416 Y25.0504
G01 X40.1403 Y25.0504
G01 X40.1403 Y20.5884
G01 X39.7386 Y20.5884
G01 X39.7332 Y20.5881
G01 X39.7279 Y20.5873
G01 X39.7226 Y20.5860
G01 X39.7176 Y20.5842
G01 X39.7127 Y20.5819
G01 X39.7080 Y20.5791
G01 X39.7037 Y20.5759
G01 X39.6997 Y20.5723
G01 X39.3947 Y20.2673
G01 X39.3911 Y20.2633
G01 X39.3879 Y20.2590
G01 X39.3851 Y20.2543
G01 X39.3828 Y20.2494
G01 X39.3810 Y20.2444
G01 X39.3797 Y20.2391
G01 X39.3789 Y20.2338
G01 X39.3786 Y20.2284
G01 X39.3786 Y19.3144
G01 X39.3789 Y19.3090
G01 X39.3797 Y19.3037
G01 X39.3810 Y19.2984
G01 X39.3828 Y19.2934
G01 X39.3851 Y19.2885
G01 X39.3879 Y19.2838
G01 X39.3911 Y19.2795
G01 X39.3947 Y19.2755
G01 X39.6997 Y18.9705
G01 X39.7037 Y18.9669
G01 X39.7080 Y18.9637
G01 X39.7127 Y18.9609
G01 X39.7176 Y18.9586
G01 X39.7226 Y18.9568
G01 X39.7279 Y18.9555
G01 X39.7332 Y18.9547
G01 X39.7386 Y18.9544
G01 X41.6686 Y18.9544
G01 X41.6740 Y18.9547
G01 X41.6793 Y18.9555
G01 X41.6846 Y18.9568
G01 X41.6896 Y18.9586
G01 X41.6945 Y18.9609
G01 X41.6992 Y18.9637
G01 X41.7035 Y18.9669
G01 X41.7075 Y18.9705
G01 X42.0125 Y19.2755
G01 X42.0161 Y19.2795
G01 X42.0193 Y19.2838
G01 X42.0221 Y19.2885
G01 X42.0244 Y19.2934
G01 X42.0262 Y19.2984
G01 X42.0275 Y19.3037
G01 X42.0283 Y19.3090
G01 X42.0286 Y19.3144
G01 X42.0286 Y20.2284
G01 X42.0283 Y20.2338
G01 X42.0275 Y20.2391
G01 X42.0262 Y20.2444
G01 X42.0244 Y20.2494
G01 X42.0221 Y20.2543
G01 X42.0193 Y20.2590
G01 X42.0161 Y20.2633
G01 X42.0125 Y20.2673
G01 X41.7075 Y20.5723
G01 X41.7035 Y20.5759
G01 X41.6992 Y20.5791
G01 X41.6945 Y20.5819
G01 X41.6896 Y20.5842
G01 X41.6846 Y20.5860
G01 X41.6793 Y20.5873
G01 X41.6740 Y20.5881
G01 X41.6686 Y20.5884
G01 X41.2669 Y20.5884
G01 X41.2669 Y25.0504
G01 X41.9736 Y25.0504
G01 X41.9790 Y25.0507
G01 X41.9843 Y25.0515
G01 X41.9896 Y25.0528
G01 X41.9946 Y25.0546
G01 X41.9995 Y25.0569
G01 X42.0042 Y25.0597
G01 X42.0085 Y25.0629
G01 X42.0125 Y25.0665
G01 X42.0161 Y25.0705
G01 X42.0193 Y25.0748
G01 X42.0221 Y25.0795
G01 X42.0244 Y25.0844
G01 X42.0262 Y25.0894
G01 X42.0275 Y25.0947
G01 X42.0283 Y25.1000
G01 X42.0286 Y25.1054
G01 X42.0286 Y27.1374
G01 X42.0283 Y27.1428
G01 X42.0275 Y27.1481
G01 X42.0262 Y27.1534
G01 X42.0244 Y27.1584
G01 X42.0221 Y27.1633
G01 X42.0193 Y27.1680
G01 X42.0161 Y27.1723
G01 X42.0125 Y27.1763
G01 X42.0085 Y27.1799
G01 X42.0042 Y27.1831
G01 X41.9995 Y27.1859
G01 X41.9946 Y27.1882
G01 X41.9896 Y27.1900
G01 X41.9843 Y27.1913
G01 X41.9790 Y27.1921
G01 X41.9736 Y27.1924
G01 X41.5209 Y27.1924
G01 X41.5209 Y27.2644
G01 X41.5178 Y27.3223
G01 X41.5094 Y27.3769
G01 X41.4958 Y27.4305
G01 X41.4769 Y27.4824
G01 X41.4556 Y27.5275
G01 X41.4274 Y27.5751
G01 X41.3947 Y27.6196
G01 X41.3577 Y27.6607
G01 X36.4991 Y32.5195
G01 X36.4991 Y34.6765
G01 X37.0102 Y35.1877
G01 X40.3222 Y35.1877
G01 X40.7825 Y34.7273
G01 X40.7825 Y32.2610
G01 X40.7851 Y32.2085
G01 X40.7929 Y32.1538
G01 X40.8061 Y32.1001
G01 X40.8244 Y32.0480
G01 X40.8478 Y31.9979
G01 X40.8760 Y31.9504
G01 X40.9087 Y31.9058
G01 X40.9457 Y31.8647
G01 X41.8327 Y30.9775
G01 X41.8758 Y30.9387
G01 X41.9204 Y30.9060
G01 X41.9679 Y30.8778
G01 X42.0130 Y30.8565
G01 X42.0649 Y30.8376
G01 X42.0701 Y30.8361
G01 X42.1238 Y30.8229
G01 X42.1785 Y30.8151
G01 X42.2310 Y30.8125
G01 X53.1991 Y30.8125
G01 X54.8469 Y29.1647
G01 X54.8469 Y15.1710
G01 X52.0050 Y12.3291
G01 X51.9696 Y12.2902
G01 X51.9365 Y12.2460
G01 X51.9079 Y12.1987
G01 X51.9053 Y12.1939
G01 X51.8840 Y12.1488
G01 X51.8651 Y12.0969
G01 X51.8514 Y12.0433
G01 X51.8431 Y11.9887
G01 X51.8401 Y11.9335
G01 X51.8400 Y9.4603
G01 X51.8316 Y9.4524
G01 X51.8257 Y9.4458
G01 X49.6243 Y11.6473
G01 X49.6361 Y11.6595
G01 X49.6393 Y11.6638
G01 X49.6421 Y11.6685
G01 X49.6444 Y11.6734
G01 X49.6462 Y11.6784
G01 X49.6475 Y11.6837
G01 X49.6483 Y11.6890
G01 X49.6486 Y11.6944
G01 X49.6486 Y12.6084
G01 X49.6483 Y12.6138
G01 X49.6475 Y12.6191
G01 X49.6462 Y12.6244
G01 X49.6444 Y12.6294
G01 X49.6421 Y12.6343
G01 X49.6393 Y12.6390
G01 X49.6361 Y12.6433
G01 X49.6325 Y12.6473
G01 X49.3275 Y12.9523
G01 X49.3235 Y12.9559
G01 X49.3192 Y12.9591
G01 X49.3145 Y12.9619
G01 X49.3096 Y12.9642
G01 X49.3046 Y12.9660
G01 X49.2993 Y12.9673
G01 X49.2940 Y12.9681
G01 X49.2886 Y12.9684
G01 X47.3586 Y12.9684
G01 X47.3532 Y12.9681
G01 X47.3479 Y12.9673
G01 X47.3426 Y12.9660
G01 X47.3376 Y12.9642
G01 X47.3327 Y12.9619
G01 X47.3280 Y12.9591
G01 X47.3237 Y12.9559
G01 X47.3197 Y12.9523
G01 X47.0147 Y12.6473
G01 X47.0111 Y12.6433
G01 X47.0079 Y12.6390
G01 X47.0051 Y12.6343
G01 X47.0028 Y12.6294
G01 X47.0010 Y12.6244
G01 X46.9997 Y12.6191
G01 X46.9989 Y12.6138
G01 X46.9986 Y12.6084
G01 X46.9986 Y11.6944
G01 X46.9989 Y11.6890
G01 X46.9997 Y11.6837
G01 X47.0010 Y11.6784
G01 X47.0028 Y11.6734
G01 X47.0051 Y11.6685
G01 X47.0079 Y11.6638
G01 X47.0111 Y11.6595
G01 X47.0147 Y11.6555
G01 X47.3197 Y11.3505
G01 X47.3237 Y11.3469
G01 X47.3280 Y11.3437
G01 X47.3327 Y11.3409
G01 X47.3376 Y11.3386
G01 X47.3426 Y11.3368
G01 X47.3479 Y11.3355
G01 X47.3532 Y11.3347
G01 X47.3586 Y11.3344
G01 X48.3440 Y11.3344
G01 X51.3797 Y8.2987
G01 X51.4228 Y8.2599
G01 X51.4674 Y8.2272
G01 X51.5101 Y8.2016
G01 X51.5600 Y8.1777
G01 X51.6119 Y8.1588
G01 X51.6171 Y8.1573
G01 X51.6655 Y8.1452
G01 X51.6754 Y8.1434
G01 X51.7019 Y8.0998
G01 X51.7612 Y8.0197
G01 X51.7647 Y8.0155
G01 X51.8316 Y7.9416
G01 X51.8354 Y7.9378
G01 X51.9093 Y7.8709
G01 X51.9135 Y7.8674
G01 X51.9936 Y7.8081
G01 X51.9981 Y7.8051
G01 X52.0836 Y7.7538
G01 X52.0883 Y7.7512
G01 X52.1785 Y7.7086
G01 X52.1835 Y7.7066
G01 X52.2773 Y7.6730
G01 X52.2825 Y7.6714
G01 X52.3792 Y7.6472
G01 X52.3845 Y7.6461
G01 X52.4831 Y7.6315
G01 X52.4885 Y7.6310
G01 X52.5881 Y7.6261
G01 X52.5935 Y7.6261
G01 X52.6931 Y7.6310
G01 X52.6985 Y7.6315
G01 X52.7971 Y7.6461
G01 X52.8024 Y7.6472
G01 X52.8991 Y7.6714
G01 X52.9043 Y7.6730
G01 X52.9981 Y7.7066
G01 X53.0031 Y7.7086
G01 X53.0933 Y7.7512
G01 X53.0980 Y7.7538
G01 X53.1835 Y7.8051
G01 X53.1880 Y7.8081
G01 X53.2681 Y7.8674
G01 X53.2723 Y7.8709
G01 X53.3462 Y7.9378
G01 X53.3500 Y7.9416
G01 X53.4169 Y8.0155
G01 X53.4204 Y8.0197
G01 X53.4797 Y8.0998
G01 X53.4827 Y8.1043
G01 X53.5340 Y8.1898
G01 X53.5366 Y8.1945
G01 X53.5792 Y8.2847
G01 X53.5812 Y8.2897
G01 X53.6148 Y8.3835
G01 X53.6164 Y8.3887
G01 X53.6406 Y8.4854
G01 X53.6417 Y8.4907
G01 X53.6563 Y8.5893
G01 X53.6568 Y8.5947
G01 X53.6617 Y8.6943
G01 X53.6617 Y8.6997
G01 X53.6568 Y8.7993
G01 X53.6563 Y8.8047
G01 X53.6417 Y8.9033
G01 X53.6406 Y8.9086
G01 X53.6164 Y9.0053
G01 X53.6148 Y9.0105
G01 X53.5812 Y9.1043
G01 X53.5792 Y9.1093
G01 X53.5366 Y9.1995
G01 X53.5340 Y9.2042
G01 X53.4827 Y9.2897
G01 X53.4797 Y9.2942
G01 X53.4204 Y9.3743
G01 X53.4169 Y9.3785
G01 X53.3500 Y9.4524
G01 X53.3462 Y9.4562
G01 X53.2723 Y9.5231
G01 X53.2681 Y9.5266
G01 X53.1880 Y9.5859
G01 X53.1835 Y9.5889
G01 X53.0980 Y9.6402
G01 X53.0933 Y9.6428
G01 X53.0031 Y9.6854
G01 X52.9665 Y9.6988
G01 X52.9665 Y11.6975
G01 X55.8085 Y14.5395
G00 Z2.0000
G00 X56.8580 Y4.3365
G01 F25.00
G01 Z-0.0187
G01 F45.00
G01 X56.8972 Y4.3387
G01 X56.9333 Y4.3443
G01 X56.9687 Y4.3534
G01 X57.0031 Y4.3660
G01 X57.0360 Y4.3819
G01 X57.0672 Y4.4009
G01 X57.0965 Y4.4229
G01 X57.1234 Y4.4476
G01 X57.1477 Y4.4749
G01 X57.1693 Y4.5044
G01 X57.1879 Y4.5359
G01 X57.2033 Y4.5691
G01 X57.2153 Y4.6036
G01 X57.2240 Y4.6392
G01 X57.2291 Y4.6754
G01 X57.2307 Y4.7092
G01 X57.2307 Y46.3906
G01 X57.2285 Y46.4298
G01 X57.2229 Y46.4659
G01 X57.2138 Y46.5013
G01 X57.2012 Y46.5357
G01 X57.1879 Y46.5639
G01 X57.1693 Y46.5954
G01 X57.1663 Y46.5998
G01 X57.1443 Y46.6291
G01 X57.1196 Y46.6560
G01 X57.0923 Y46.6803
G01 X57.0628 Y46.7019
G01 X57.0360 Y46.7179
G01 X57.0031 Y46.7338
G01 X56.9687 Y46.7464
G01 X56.9636 Y46.7479
G01 X56.9280 Y46.7566
G01 X56.8918 Y46.7617
G01 X56.8580 Y46.7633
G01 X3.1116 Y46.7633
G01 X3.0724 Y46.7611
G01 X3.0363 Y46.7555
G01 X3.0009 Y46.7464
G01 X2.9665 Y46.7338
G01 X2.9383 Y46.7205
G01 X2.9068 Y46.7019
G01 X2.9024 Y46.6989
G01 X2.8731 Y46.6769
G01 X2.8462 Y46.6522
G01 X2.8219 Y46.6249
G01 X2.8003 Y46.5954
G01 X2.7843 Y46.5686
G01 X2.7684 Y46.5357
G01 X2.7558 Y46.5013
G01 X2.7543 Y46.4962
G01 X2.7456 Y46.4606
G01 X2.7405 Y46.4244
G01 X2.7389 Y46.3906
G01 X2.7389 Y4.7092
G01 X2.7411 Y4.6700
G01 X2.7467 Y4.6339
G01 X2.7558 Y4.5985
G01 X2.7684 Y4.5641
G01 X2.7817 Y4.5359
G01 X2.8003 Y4.5044
G01 X2.8033 Y4.5000
G01 X2.8253 Y4.4707
G01 X2.8500 Y4.4438
G01 X2.8773 Y4.4195
G01 X2.9068 Y4.3979
G01 X2.9336 Y4.3819
G01 X2.9665 Y4.3660
G01 X3.0009 Y4.3534
G01 X3.0060 Y4.3519
G01 X3.0416 Y4.3432
G01 X3.0778 Y4.3381
G01 X3.1116 Y4.3365
G01 X56.8580 Y4.3365
G00 Z2.0000
G00 X57.4379 Y3.1387
G01 F25.00
G01 Z-0.0187
G01 F45.00
G01 X57.4379 Y46.8943
G01 X1.7697 Y46.8943
G01 X1.7697 Y3.1387
G01 X57.4379 Y3.1387
G00 Z2.0000
G00 X43.7995 Y34.9130
G01 F25.00
G01 Z-0.0187
G01 F45.00
G01 X43.8741 Y34.8774
G01 X43.9535 Y34.8296
G01 X44.0277 Y34.7742
G01 X44.0962 Y34.7118
G01 X44.1548 Y34.6471
G01 X44.2102 Y34.5729
G01 X44.2580 Y34.4935
G01 X44.2936 Y34.4189
G01 X44.7686 Y34.4189
G01 X44.7686 Y34.6020
G01 X43.9826 Y35.3880
G01 X43.7995 Y35.3880
G01 X43.7995 Y34.9130
G00 Z2.0000
G00 X49.2549 Y40.4299
G01 F25.00
G01 Z-0.0187
G01 F45.00
G01 X48.8106 Y40.4299
G01 X48.8106 Y39.9838
G01 X49.9686 Y38.8258
G01 X50.4147 Y38.8258
G01 X50.4147 Y39.2701
G01 X50.3265 Y39.2924
G01 X50.1857 Y39.3428
G01 X50.1807 Y39.3449
G01 X50.0455 Y39.4088
G01 X50.0407 Y39.4114
G01 X49.9124 Y39.4883
G01 X49.9079 Y39.4913
G01 X49.7878 Y39.5804
G01 X49.7836 Y39.5838
G01 X49.6728 Y39.6842
G01 X49.6690 Y39.6880
G01 X49.5686 Y39.7988
G01 X49.5652 Y39.8030
G01 X49.4761 Y39.9231
G01 X49.4731 Y39.9276
G01 X49.3962 Y40.0559
G01 X49.3936 Y40.0607
G01 X49.3297 Y40.1959
G01 X49.3276 Y40.2009
G01 X49.2772 Y40.3417
G01 X49.2549 Y40.4299
G00 Z2.0000
G00 X51.1601 Y38.8258
G01 F25.00
G01 Z-0.0187
G01 F45.00
G01 X51.6062 Y38.8258
G01 X52.7642 Y39.9838
G01 X52.7642 Y40.4299
G01 X52.3199 Y40.4299
G01 X52.2976 Y40.3417
G01 X52.2472 Y40.2009
G01 X52.2451 Y40.1959
G01 X52.1812 Y40.0607
G01 X52.1786 Y40.0559
G01 X52.1017 Y39.9276
G01 X52.0987 Y39.9231
G01 X52.0096 Y39.8030
G01 X52.0062 Y39.7988
G01 X51.9058 Y39.6880
G01 X51.9020 Y39.6842
G01 X51.7912 Y39.5838
G01 X51.7870 Y39.5804
G01 X51.6669 Y39.4913
G01 X51.6624 Y39.4883
G01 X51.5341 Y39.4114
G01 X51.5293 Y39.4088
G01 X51.3941 Y39.3449
G01 X51.3891 Y39.3428
G01 X51.2483 Y39.2924
G01 X51.1601 Y39.2701
G01 X51.1601 Y38.8258
G00 Z2.0000
G00 X52.3199 Y41.1753
G01 F25.00
G01 Z-0.0187
G01 F45.00
G01 X52.7642 Y41.1753
G01 X52.7642 Y41.6214
G01 X51.6062 Y42.7794
G01 X51.1601 Y42.7794
G01 X51.1601 Y42.3351
G01 X51.2483 Y42.3128
G01 X51.3891 Y42.2624
G01 X51.3941 Y42.2603
G01 X51.5293 Y42.1964
G01 X51.5341 Y42.1938
G01 X51.6624 Y42.1169
G01 X51.6669 Y42.1139
G01 X51.7870 Y42.0248
G01 X51.7912 Y42.0214
G01 X51.9020 Y41.9210
G01 X51.9058 Y41.9172
G01 X52.0062 Y41.8064
G01 X52.0096 Y41.8022
G01 X52.0987 Y41.6821
G01 X52.1017 Y41.6776
G01 X52.1786 Y41.5493
G01 X52.1812 Y41.5445
G01 X52.2451 Y41.4093
G01 X52.2472 Y41.4043
G01 X52.2976 Y41.2635
G01 X52.3199 Y41.1753
G00 Z2.0000
G00 X50.4147 Y42.7794
G01 F25.00
G01 Z-0.0187
G01 F45.00
G01 X49.9686 Y42.7794
G01 X48.8106 Y41.6214
G01 X48.8106 Y41.1753
G01 X49.2549 Y41.1753
G01 X49.2772 Y41.2635
G01 X49.3276 Y41.4043
G01 X49.3297 Y41.4093
G01 X49.3936 Y41.5445
G01 X49.3962 Y41.5493
G01 X49.4731 Y41.6776
G01 X49.4761 Y41.6821
G01 X49.5652 Y41.8022
G01 X49.5686 Y41.8064
G01 X49.6690 Y41.9172
G01 X49.6728 Y41.9210
G01 X49.7836 Y42.0214
G01 X49.7878 Y42.0248
G01 X49.9079 Y42.1139
G01 X49.9124 Y42.1169
G01 X50.0407 Y42.1938
G01 X50.0455 Y42.1964
G01 X50.1807 Y42.2603
G01 X50.1857 Y42.2624
G01 X50.3265 Y42.3128
G01 X50.4147 Y42.3351
G01 X50.4147 Y42.7794
G00 Z2.0000
G00 X24.6405 Y36.1501
G01 F25.00
G01 Z-0.0187
G01 F45.00
G01 X24.5547 Y36.1096
G01 X24.5500 Y36.1070
G01 X24.4645 Y36.0557
G01 X24.4600 Y36.0527
G01 X24.3799 Y35.9934
G01 X24.3757 Y35.9899
G01 X24.3018 Y35.9230
G01 X24.2980 Y35.9192
G01 X24.2311 Y35.8453
G01 X24.2276 Y35.8411
G01 X24.1683 Y35.7610
G01 X24.1653 Y35.7565
G01 X24.1140 Y35.6710
G01 X24.1114 Y35.6663
G01 X24.0688 Y35.5761
G01 X24.0668 Y35.5711
G01 X24.0332 Y35.4773
G01 X24.0316 Y35.4721
G01 X24.0074 Y35.3754
G01 X24.0063 Y35.3701
G01 X23.9917 Y35.2715
G01 X23.9912 Y35.2661
G01 X23.9863 Y35.1665
G01 X23.9863 Y35.1611
G01 X23.9912 Y35.0615
G01 X23.9917 Y35.0561
G01 X24.0063 Y34.9575
G01 X24.0074 Y34.9522
G01 X24.0316 Y34.8555
G01 X24.0332 Y34.8503
G01 X24.0668 Y34.7565
G01 X24.0688 Y34.7515
G01 X24.1114 Y34.6613
G01 X24.1140 Y34.6566
G01 X24.1653 Y34.5711
G01 X24.1683 Y34.5666
G01 X24.2276 Y34.4865
G01 X24.2311 Y34.4823
G01 X24.2980 Y34.4084
G01 X24.3018 Y34.4046
G01 X24.3757 Y34.3377
G01 X24.3799 Y34.3342
G01 X24.4600 Y34.2749
G01 X24.4645 Y34.2719
G01 X24.5500 Y34.2206
G01 X24.5547 Y34.2180
G01 X24.6449 Y34.1754
G01 X24.6499 Y34.1734
G01 X24.7437 Y34.1398
G01 X24.7489 Y34.1382
G01 X24.8456 Y34.1140
G01 X24.8509 Y34.1129
G01 X24.9495 Y34.0983
G01 X24.9549 Y34.0978
G01 X25.0545 Y34.0929
G01 X25.0599 Y34.0929
G01 X25.1595 Y34.0978
G01 X25.1649 Y34.0983
G01 X25.2635 Y34.1129
G01 X25.2688 Y34.1140
G01 X25.3655 Y34.1382
G01 X25.3707 Y34.1398
G01 X25.4645 Y34.1734
G01 X25.4695 Y34.1754
G01 X25.5597 Y34.2180
G01 X25.5644 Y34.2206
G01 X25.6499 Y34.2719
G01 X25.6544 Y34.2749
G01 X25.7345 Y34.3342
G01 X25.7387 Y34.3377
G01 X25.8126 Y34.4046
G01 X25.8164 Y34.4084
G01 X25.8833 Y34.4823
G01 X25.8868 Y34.4865
G01 X25.9461 Y34.5666
G01 X25.9491 Y34.5711
G01 X26.0004 Y34.6566
G01 X26.0384 Y34.7363
G01 X26.1136 Y34.7471
G01 X29.2286 Y34.7471
G01 X29.2865 Y34.7502
G01 X29.3411 Y34.7585
G01 X29.3947 Y34.7722
G01 X29.4417 Y34.7890
G01 X29.4898 Y34.8115
G01 X37.3466 Y26.9546
G01 X37.3466 Y25.1054
G01 X37.3469 Y25.1000
G01 X37.3477 Y25.0947
G01 X37.3490 Y25.0894
G01 X37.3508 Y25.0844
G01 X37.3531 Y25.0795
G01 X37.3559 Y25.0748
G01 X37.3591 Y25.0705
G01 X37.3627 Y25.0665
G01 X37.3667 Y25.0629
G01 X37.3710 Y25.0597
G01 X37.3757 Y25.0569
G01 X37.3806 Y25.0546
G01 X37.3856 Y25.0528
G01 X37.3909 Y25.0515
G01 X37.3962 Y25.0507
G01 X37.4016 Y25.0504
G01 X39.4336 Y25.0504
G01 X39.4390 Y25.0507
G01 X39.4443 Y25.0515
G01 X39.4496 Y25.0528
G01 X39.4546 Y25.0546
G01 X39.4595 Y25.0569
G01 X39.4642 Y25.0597
G01 X39.4685 Y25.0629
G01 X39.4725 Y25.0665
G01 X39.4761 Y25.0705
G01 X39.4793 Y25.0748
G01 X39.4821 Y25.0795
G01 X39.4844 Y25.0844
G01 X39.4862 Y25.0894
G01 X39.4875 Y25.0947
G01 X39.4883 Y25.1000
G01 X39.4886 Y25.1054
G01 X39.4886 Y27.1374
G01 X39.4883 Y27.1428
G01 X39.4875 Y27.1481
G01 X39.4862 Y27.1534
G01 X39.4844 Y27.1584
G01 X39.4821 Y27.1633
G01 X39.4793 Y27.1680
G01 X39.4761 Y27.1723
G01 X39.4725 Y27.1763
G01 X39.4685 Y27.1799
G01 X39.4642 Y27.1831
G01 X39.4595 Y27.1859
G01 X39.4546 Y27.1882
G01 X39.4496 Y27.1900
G01 X39.4443 Y27.1913
G01 X39.4390 Y27.1921
G01 X39.4336 Y27.1924
G01 X38.7020 Y27.1924
G01 X30.3046 Y35.5898
G01 X31.5631 Y36.8483
G01 X44.8647 Y36.8483
G01 X46.6757 Y35.0373
G01 X46.7146 Y35.0020
G01 X46.7588 Y34.9688
G01 X46.8061 Y34.9402
G01 X46.8560 Y34.9163
G01 X46.9079 Y34.8974
G01 X46.9615 Y34.8838
G01 X47.0161 Y34.8754
G01 X47.0740 Y34.8723
G01 X49.4583 Y34.8723
G01 X49.4761 Y34.8431
G01 X49.5652 Y34.7230
G01 X49.5686 Y34.7188
G01 X49.6690 Y34.6080
G01 X49.6728 Y34.6042
G01 X49.7836 Y34.5038
G01 X49.7878 Y34.5004
G01 X49.9079 Y34.4113
G01 X49.9124 Y34.4083
G01 X50.0407 Y34.3314
G01 X50.0455 Y34.3288
G01 X50.1807 Y34.2649
G01 X50.1857 Y34.2628
G01 X50.3265 Y34.2124
G01 X50.3316 Y34.2109
G01 X50.4767 Y34.1745
G01 X50.4820 Y34.1735
G01 X50.6300 Y34.1515
G01 X50.6353 Y34.1510
G01 X50.7847 Y34.1437
G01 X50.7901 Y34.1437
G01 X50.9395 Y34.1510
G01 X50.9448 Y34.1515
G01 X51.0928 Y34.1735
G01 X51.0981 Y34.1745
G01 X51.2432 Y34.2109
G01 X51.2483 Y34.2124
G01 X51.3891 Y34.2628
G01 X51.3941 Y34.2649
G01 X51.5293 Y34.3288
G01 X51.5341 Y34.3314
G01 X51.6624 Y34.4083
G01 X51.6669 Y34.4113
G01 X51.7870 Y34.5004
G01 X51.7912 Y34.5038
G01 X51.9020 Y34.6042
G01 X51.9058 Y34.6080
G01 X52.0062 Y34.7188
G01 X52.0096 Y34.7230
G01 X52.0987 Y34.8431
G01 X52.1017 Y34.8476
G01 X52.1786 Y34.9759
G01 X52.1812 Y34.9807
G01 X52.2451 Y35.1159
G01 X52.2472 Y35.1209
G01 X52.2976 Y35.2617
G01 X52.2991 Y35.2668
G01 X52.3355 Y35.4119
G01 X52.3365 Y35.4172
G01 X52.3585 Y35.5652
G01 X52.3590 Y35.5705
G01 X52.3663 Y35.7199
G01 X52.3663 Y35.7253
G01 X52.3590 Y35.8747
G01 X52.3585 Y35.8800
G01 X52.3365 Y36.0280
G01 X52.3355 Y36.0333
G01 X52.2991 Y36.1784
G01 X52.2976 Y36.1835
G01 X52.2472 Y36.3243
G01 X52.2451 Y36.3293
G01 X52.1812 Y36.4645
G01 X52.1786 Y36.4693
G01 X52.1017 Y36.5976
G01 X52.0987 Y36.6021
G01 X52.0096 Y36.7222
G01 X52.0062 Y36.7264
G01 X51.9058 Y36.8372
G01 X51.9020 Y36.8410
G01 X51.7912 Y36.9414
G01 X51.7870 Y36.9448
G01 X51.6669 Y37.0339
G01 X51.6624 Y37.0369
G01 X51.5341 Y37.1138
G01 X51.5293 Y37.1164
G01 X51.3941 Y37.1803
G01 X51.3891 Y37.1824
G01 X51.2483 Y37.2328
G01 X51.2432 Y37.2343
G01 X51.0981 Y37.2707
G01 X51.0928 Y37.2717
G01 X50.9448 Y37.2937
G01 X50.9395 Y37.2942
G01 X50.7901 Y37.3015
G01 X50.7847 Y37.3015
G01 X50.6353 Y37.2942
G01 X50.6300 Y37.2937
G01 X50.4820 Y37.2717
G01 X50.4767 Y37.2707
G01 X50.3316 Y37.2343
G01 X50.3265 Y37.2328
G01 X50.1857 Y37.1824
G01 X50.1807 Y37.1803
G01 X50.0455 Y37.1164
G01 X50.0407 Y37.1138
G01 X49.9124 Y37.0369
G01 X49.9079 Y37.0339
G01 X49.7878 Y36.9448
G01 X49.7836 Y36.9414
G01 X49.6728 Y36.8410
G01 X49.6690 Y36.8372
G01 X49.5686 Y36.7264
G01 X49.5652 Y36.7222
G01 X49.4761 Y36.6021
G01 X49.4731 Y36.5976
G01 X49.3962 Y36.4693
G01 X49.3936 Y36.4645
G01 X49.3297 Y36.3293
G01 X49.3276 Y36.3243
G01 X49.2772 Y36.1835
G01 X49.2757 Y36.1784
G01 X49.2393 Y36.0333
G01 X49.2340 Y35.9989
G01 X47.3073 Y35.9989
G01 X45.4963 Y37.8098
G01 X45.4574 Y37.8452
G01 X45.4132 Y37.8783
G01 X45.3659 Y37.9070
G01 X45.3611 Y37.9095
G01 X45.3110 Y37.9329
G01 X45.2589 Y37.9513
G01 X45.2052 Y37.9644
G01 X45.1505 Y37.9723
G01 X45.0980 Y37.9748
G01 X31.3298 Y37.9748
G01 X31.2719 Y37.9718
G01 X31.2173 Y37.9634
G01 X31.1637 Y37.9497
G01 X31.1118 Y37.9308
G01 X31.0667 Y37.9095
G01 X31.0619 Y37.9070
G01 X31.0147 Y37.8783
G01 X30.9704 Y37.8452
G01 X30.9335 Y37.8117
G01 X28.9953 Y35.8736
G01 X26.0732 Y35.8736
G01 X25.9928 Y35.8679
G01 X25.8779 Y35.8513
G01 X25.8164 Y35.9192
G01 X25.7670 Y35.9642
G01 X25.7670 Y39.1076
G01 X25.7640 Y39.1628
G01 X25.7556 Y39.2174
G01 X25.7435 Y39.2658
G01 X25.7419 Y39.2709
G01 X25.7231 Y39.3229
G01 X25.7017 Y39.3680
G01 X25.6735 Y39.4155
G01 X25.6408 Y39.4601
G01 X25.6021 Y39.5032
G01 X20.7547 Y44.3505
G01 X20.7158 Y44.3858
G01 X20.6716 Y44.4190
G01 X20.6243 Y44.4476
G01 X20.5745 Y44.4715
G01 X20.5225 Y44.4904
G01 X20.5174 Y44.4919
G01 X20.4637 Y44.5051
G01 X20.4090 Y44.5129
G01 X20.3564 Y44.5155
G01 X10.6046 Y44.5155
G01 X10.5467 Y44.5124
G01 X10.4921 Y44.5040
G01 X10.4385 Y44.4904
G01 X10.3866 Y44.4715
G01 X10.3367 Y44.4476
G01 X10.2895 Y44.4190
G01 X10.2452 Y44.3858
G01 X10.2063 Y44.3505
G01 X7.1273 Y41.2715
G01 X7.0920 Y41.2326
G01 X7.0588 Y41.1883
G01 X7.0302 Y41.1411
G01 X7.0276 Y41.1363
G01 X7.0063 Y41.0912
G01 X6.9874 Y41.0393
G01 X6.9738 Y40.9857
G01 X6.9654 Y40.9311
G01 X6.9649 Y40.9257
G01 X6.9623 Y40.8732
G01 X6.9623 Y39.5176
G01 X6.8987 Y39.4872
G01 X6.7918 Y39.4231
G01 X6.7873 Y39.4201
G01 X6.6872 Y39.3459
G01 X6.6830 Y39.3425
G01 X6.5906 Y39.2588
G01 X6.5868 Y39.2550
G01 X6.5031 Y39.1626
G01 X6.4997 Y39.1584
G01 X6.4255 Y39.0583
G01 X6.4225 Y39.0538
G01 X6.3584 Y38.9469
G01 X6.3558 Y38.9422
G01 X6.3026 Y38.8295
G01 X6.3005 Y38.8245
G01 X6.2585 Y38.7072
G01 X6.2569 Y38.7020
G01 X6.2267 Y38.5811
G01 X6.2256 Y38.5758
G01 X6.2073 Y38.4526
G01 X6.2068 Y38.4472
G01 X6.2007 Y38.3227
G01 X6.2007 Y38.3173
G01 X6.2068 Y38.1928
G01 X6.2073 Y38.1874
G01 X6.2256 Y38.0642
G01 X6.2267 Y38.0589
G01 X6.2569 Y37.9380
G01 X6.2585 Y37.9328
G01 X6.3005 Y37.8155
G01 X6.3026 Y37.8105
