(G-CODE GENERATED BY FLATCAM v8.991 - www.flatcam.org - Version Date: 2019/12/27)

(Name: cortecnc)
(Type: G-code from Geometry)
(Units: MM)

(Created on Thursday, 14 September 2023 at 21:50)

(TOOL DIAMETER: 2.4 mm)
(Feedrate: 45.0 mm/min)
(Feedrate_Z: 25.0 mm/min)
(Feedrate rapids 1500.0 mm/min)

(Z_Cut: -1.8 mm)
(DepthPerCut: 0.6 mm <=>3 passes)
(Z_Move: 2.0 mm)
(Z Toolchange: 15.0 mm)
(X,Y Toolchange: 0.0000, 0.0000 mm)
(Z Start: None mm)
(Z End: 15.0 mm)
(Steps per circle: 64)
(Preprocessor Geometry: default)

(X range:    0.3113 ...   58.8963  mm)
(Y range:    1.6803 ...   48.3527  mm)

(Spindle Speed: None RPM)
G21
G90
G94




G01 F45.00
G00 Z2.0000

M03
G00 X0.3113 Y23.3165
G01 F25.00
G01 Z-0.6000
G01 F45.00
G01 X0.3113 Y2.8803
G01 X0.3171 Y2.7627
G01 X0.3344 Y2.6462
G01 X0.3630 Y2.5320
G01 X0.4027 Y2.4211
G01 X0.4530 Y2.3147
G01 X0.5136 Y2.2137
G01 X0.5837 Y2.1191
G01 X0.6628 Y2.0318
G01 X0.7501 Y1.9527
G01 X0.8447 Y1.8826
G01 X0.9457 Y1.8220
G01 X1.0521 Y1.7717
G01 X1.1630 Y1.7320
G01 X1.2772 Y1.7034
G01 X1.3937 Y1.6861
G01 X1.5113 Y1.6803
G01 X27.9038 Y1.6803
G00 X27.9038 Y1.6803
G01 F25.00
G01 Z-1.2000
G01 F45.00
G01 X1.5113 Y1.6803
G01 X1.3937 Y1.6861
G01 X1.2772 Y1.7034
G01 X1.1630 Y1.7320
G01 X1.0521 Y1.7717
G01 X0.9457 Y1.8220
G01 X0.8447 Y1.8826
G01 X0.7501 Y1.9527
G01 X0.6628 Y2.0318
G01 X0.5837 Y2.1191
G01 X0.5136 Y2.2137
G01 X0.4530 Y2.3147
G01 X0.4027 Y2.4211
G01 X0.3630 Y2.5320
G01 X0.3344 Y2.6462
G01 X0.3171 Y2.7627
G01 X0.3113 Y2.8803
G01 X0.3113 Y23.3165
G00 X0.3113 Y23.3165
G01 F25.00
G01 Z-1.8000
G01 F45.00
G01 X0.3113 Y2.8803
G01 X0.3171 Y2.7627
G01 X0.3344 Y2.6462
G01 X0.3630 Y2.5320
G01 X0.4027 Y2.4211
G01 X0.4530 Y2.3147
G01 X0.5136 Y2.2137
G01 X0.5837 Y2.1191
G01 X0.6628 Y2.0318
G01 X0.7501 Y1.9527
G01 X0.8447 Y1.8826
G01 X0.9457 Y1.8220
G01 X1.0521 Y1.7717
G01 X1.1630 Y1.7320
G01 X1.2772 Y1.7034
G01 X1.3937 Y1.6861
G01 X1.5113 Y1.6803
G01 X27.9038 Y1.6803
G00 Z2.0000
G00 X31.3038 Y1.6803
G01 F25.00
G01 Z-0.6000
G01 F45.00
G01 X57.6963 Y1.6803
G00 X57.6963 Y1.6803
G01 F25.00
G01 Z-1.2000
G01 F45.00
G01 X31.3038 Y1.6803
G00 X31.3038 Y1.6803
G01 F25.00
G01 Z-1.8000
G01 F45.00
G01 X57.6963 Y1.6803
G00 Z2.0000
G00 X57.6963 Y1.6803
G01 F25.00
G01 Z-0.6000
G01 F45.00
G01 X57.8139 Y1.6861
G01 X57.9304 Y1.7034
G01 X58.0446 Y1.7320
G01 X58.1555 Y1.7717
G01 X58.2619 Y1.8220
G01 X58.3629 Y1.8826
G01 X58.4575 Y1.9527
G01 X58.5448 Y2.0318
G01 X58.6239 Y2.1191
G01 X58.6940 Y2.2137
G01 X58.7546 Y2.3147
G01 X58.8049 Y2.4211
G01 X58.8446 Y2.5320
G01 X58.8732 Y2.6462
G01 X58.8905 Y2.7627
G01 X58.8963 Y2.8803
G01 X58.8963 Y23.3165
G00 X58.8963 Y23.3165
G01 F25.00
G01 Z-1.2000
G01 F45.00
G01 X58.8963 Y2.8803
G01 X58.8905 Y2.7627
G01 X58.8732 Y2.6462
G01 X58.8446 Y2.5320
G01 X58.8049 Y2.4211
G01 X58.7546 Y2.3147
G01 X58.6940 Y2.2137
G01 X58.6239 Y2.1191
G01 X58.5448 Y2.0318
G01 X58.4575 Y1.9527
G01 X58.3629 Y1.8826
G01 X58.2619 Y1.8220
G01 X58.1555 Y1.7717
G01 X58.0446 Y1.7320
G01 X57.9304 Y1.7034
G01 X57.8139 Y1.6861
G01 X57.6963 Y1.6803
G00 X57.6963 Y1.6803
G01 F25.00
G01 Z-1.8000
G01 F45.00
G01 X57.8139 Y1.6861
G01 X57.9304 Y1.7034
G01 X58.0446 Y1.7320
G01 X58.1555 Y1.7717
G01 X58.2619 Y1.8220
G01 X58.3629 Y1.8826
G01 X58.4575 Y1.9527
G01 X58.5448 Y2.0318
G01 X58.6239 Y2.1191
G01 X58.6940 Y2.2137
G01 X58.7546 Y2.3147
G01 X58.8049 Y2.4211
G01 X58.8446 Y2.5320
G01 X58.8732 Y2.6462
G01 X58.8905 Y2.7627
G01 X58.8963 Y2.8803
G01 X58.8963 Y23.3165
G00 Z2.0000
G00 X58.8963 Y26.7165
G01 F25.00
G01 Z-0.6000
G01 F45.00
G01 X58.8963 Y47.1527
G01 X58.8905 Y47.2703
G01 X58.8732 Y47.3868
G01 X58.8446 Y47.5010
G01 X58.8049 Y47.6119
G01 X58.7546 Y47.7183
G01 X58.6940 Y47.8193
G01 X58.6239 Y47.9139
G01 X58.5448 Y48.0012
G01 X58.4575 Y48.0803
G01 X58.3629 Y48.1504
G01 X58.2619 Y48.2110
G01 X58.1555 Y48.2613
G01 X58.0446 Y48.3010
G01 X57.9304 Y48.3296
G01 X57.8139 Y48.3469
G01 X57.6963 Y48.3527
G01 X31.3038 Y48.3527
G00 X31.3038 Y48.3527
G01 F25.00
G01 Z-1.2000
G01 F45.00
G01 X57.6963 Y48.3527
G01 X57.8139 Y48.3469
G01 X57.9304 Y48.3296
G01 X58.0446 Y48.3010
G01 X58.1555 Y48.2613
G01 X58.2619 Y48.2110
G01 X58.3629 Y48.1504
G01 X58.4575 Y48.0803
G01 X58.5448 Y48.0012
G01 X58.6239 Y47.9139
G01 X58.6940 Y47.8193
G01 X58.7546 Y47.7183
G01 X58.8049 Y47.6119
G01 X58.8446 Y47.5010
G01 X58.8732 Y47.3868
G01 X58.8905 Y47.2703
G01 X58.8963 Y47.1527
G01 X58.8963 Y26.7165
G00 X58.8963 Y26.7165
G01 F25.00
G01 Z-1.8000
G01 F45.00
G01 X58.8963 Y47.1527
G01 X58.8905 Y47.2703
G01 X58.8732 Y47.3868
G01 X58.8446 Y47.5010
G01 X58.8049 Y47.6119
G01 X58.7546 Y47.7183
G01 X58.6940 Y47.8193
G01 X58.6239 Y47.9139
G01 X58.5448 Y48.0012
G01 X58.4575 Y48.0803
G01 X58.3629 Y48.1504
G01 X58.2619 Y48.2110
G01 X58.1555 Y48.2613
G01 X58.0446 Y48.3010
G01 X57.9304 Y48.3296
G01 X57.8139 Y48.3469
G01 X57.6963 Y48.3527
G01 X31.3038 Y48.3527
G00 Z2.0000
G00 X27.9038 Y48.3527
G01 F25.00
G01 Z-0.6000
G01 F45.00
G01 X1.5113 Y48.3527
G01 X1.3937 Y48.3469
G01 X1.2772 Y48.3296
G01 X1.1630 Y48.3010
G01 X1.0521 Y48.2613
G01 X0.9457 Y48.2110
G01 X0.8447 Y48.1504
G01 X0.7501 Y48.0803
G01 X0.6628 Y48.0012
G01 X0.5837 Y47.9139
G01 X0.5136 Y47.8193
G01 X0.4530 Y47.7183
G01 X0.4027 Y47.6119
G01 X0.3630 Y47.5010
G01 X0.3344 Y47.3868
G01 X0.3171 Y47.2703
G01 X0.3113 Y47.1527
G01 X0.3113 Y26.7165
G00 X0.3113 Y26.7165
G01 F25.00
G01 Z-1.2000
G01 F45.00
G01 X0.3113 Y47.1527
G01 X0.3171 Y47.2703
G01 X0.3344 Y47.3868
G01 X0.3630 Y47.5010
G01 X0.4027 Y47.6119
G01 X0.4530 Y47.7183
G01 X0.5136 Y47.8193
G01 X0.5837 Y47.9139
G01 X0.6628 Y48.0012
G01 X0.7501 Y48.0803
G01 X0.8447 Y48.1504
G01 X0.9457 Y48.2110
G01 X1.0521 Y48.2613
G01 X1.1630 Y48.3010
G01 X1.2772 Y48.3296
G01 X1.3937 Y48.3469
G01 X1.5113 Y48.3527
G01 X27.9038 Y48.3527
G00 X27.9038 Y48.3527
G01 F25.00
G01 Z-1.8000
G01 F45.00
G01 X1.5113 Y48.3527
G01 X1.3937 Y48.3469
G01 X1.2772 Y48.3296
G01 X1.1630 Y48.3010
G01 X1.0521 Y48.2613
G01 X0.9457 Y48.2110
G01 X0.8447 Y48.1504
G01 X0.7501 Y48.0803
G01 X0.6628 Y48.0012
G01 X0.5837 Y47.9139
G01 X0.5136 Y47.8193
G01 X0.4530 Y47.7183
G01 X0.4027 Y47.6119
G01 X0.3630 Y47.5010
G01 X0.3344 Y47.3868
G01 X0.3171 Y47.2703
G01 X0.3113 Y47.1527
G01 X0.3113 Y26.7165
G00 Z2.0000
M05
G00 Z2.0000
G00 Z15.00
G00 X0.0 Y0.0

